; generated by Slic3r 1.1.7 on 2014-12-07 at 08:59:29

; perimeters extrusion width = 0.40mm
; infill extrusion width = 0.40mm
; solid infill extrusion width = 0.40mm
; top infill extrusion width = 0.40mm

G21 ; set units to millimeters
M107
M190 S110 ; wait for bed temperature to be reached
M104 S240 ; set temperature
G1 Z5 F90 ; lift nozzle
G28 X0 Y0 ;
G1 X110 Y180 F9000 ;
G28 Z0 ;

M109 S240 ; wait for temperature to be reached
G90 ; use absolute coordinates
G92 E0
M82 ; use absolute distances for extrusion
M204 S1500
G1 F2400.000 E-5.00000
G92 E0
G1 Z0.200 F10500.000
G1 X52.583 Y114.418 F10500.000
G1 E5.00000 F2400.000
G1 X55.000 Y113.583 E5.06890 F240.000
G1 X165.000 Y113.583 E8.03240
G1 X166.714 Y113.978 E8.07978
G1 X168.082 Y115.083 E8.12717 F240.000
G1 X168.917 Y117.500 E8.19607
G1 X168.917 Y202.500 E10.48604
G1 X168.522 Y204.214 E10.53343
G1 X167.417 Y205.582 E10.58082
G1 X165.000 Y206.417 E10.64972
G1 X55.000 Y206.417 E13.61321
G1 X53.286 Y206.022 E13.66060
G1 X51.918 Y204.917 E13.70799
G1 X51.083 Y202.500 E13.77689
G1 X51.083 Y117.500 E16.06686
G1 X51.478 Y115.786 E16.11425
G1 X52.545 Y114.464 E16.16002
G1 X52.833 Y114.631 F10500.000
G1 X52.880 Y114.576 E16.16198 F240.000
G1 X55.000 Y113.888 E16.22202
G1 X165.000 Y113.888 E19.18552
G1 X166.641 Y114.283 E19.23099
G1 X167.924 Y115.380 E19.27647 F240.000
G1 X168.612 Y117.500 E19.33651
G1 X168.612 Y202.500 E21.62648
G1 X168.217 Y204.141 E21.67196
G1 X167.120 Y205.424 E21.71743
G1 X165.000 Y206.112 E21.77747
G1 X55.000 Y206.112 E24.74097
G1 X53.359 Y205.717 E24.78645
G1 X52.076 Y204.620 E24.83192
G1 X51.388 Y202.500 E24.89196
G1 X51.388 Y117.500 E27.18193
G1 X51.783 Y115.859 E27.22741
G1 X52.794 Y114.677 E27.26931
G1 X53.076 Y114.853 F10500.000
G1 X53.176 Y114.743 E27.27332 F240.000
G1 X55.000 Y114.194 E27.32463
G1 X165.000 Y114.194 E30.28813
G1 X166.565 Y114.588 E30.33161
G1 X167.757 Y115.676 E30.37509 F240.000
G1 X168.306 Y117.500 E30.42640
G1 X168.306 Y202.500 E32.71638
G1 X167.912 Y204.065 E32.75986
G1 X166.824 Y205.257 E32.80334
G1 X165.000 Y205.806 E32.85465
G1 X55.000 Y205.806 E35.81815
G1 X53.435 Y205.412 E35.86162
G1 X52.243 Y204.324 E35.90510
G1 X51.694 Y202.500 E35.95641
G1 X51.694 Y117.500 E38.24639
G1 X52.088 Y115.935 E38.28987
G1 X53.035 Y114.897 E38.32771
G1 F2400.000 E33.32771
G92 E0
G1 X112.004 Y183.471 F10500.000
G1 E5.00000 F2400.000
G1 X111.037 Y183.871 E5.02819 F600.000
G1 X110.918 Y183.887 E5.03143
G1 X110.000 Y184.008 E5.05638
G1 X108.963 Y183.871 E5.08457
G1 X107.996 Y183.471 E5.11275
G1 X107.166 Y182.834 E5.14094
G1 X106.529 Y182.004 E5.16913
G1 X106.129 Y181.037 E5.19732
G1 X105.992 Y180.000 E5.22551
G1 X106.129 Y178.963 E5.25370
G1 X106.529 Y177.996 E5.28188
G1 X107.166 Y177.166 E5.31007
G1 X107.996 Y176.529 E5.33826
G1 X108.963 Y176.129 E5.36645
G1 X110.000 Y175.992 E5.39464
G1 X110.918 Y176.113 E5.41959
G1 X111.037 Y176.129 E5.42282 F600.000
G1 X112.004 Y176.529 E5.45101
G1 X112.834 Y177.166 E5.47920
G1 X113.471 Y177.996 E5.50739
G1 X113.871 Y178.963 E5.53558
G1 X114.008 Y180.000 E5.56377
G1 X113.871 Y181.037 E5.59196
G1 X113.471 Y182.004 E5.62014
G1 X112.834 Y182.834 E5.64833
G1 X112.052 Y183.434 E5.67490
G1 X111.850 Y183.204 F10500.000
G1 X110.958 Y183.574 E5.70092 F600.000
G1 X110.878 Y183.584 E5.70307
G1 X110.000 Y183.700 E5.72694
G1 X109.042 Y183.574 E5.75296
G1 X108.150 Y183.204 E5.77898
G1 X107.384 Y182.616 E5.80500
G1 X106.796 Y181.850 E5.83102
G1 X106.426 Y180.958 E5.85704
G1 X106.300 Y180.000 E5.88306
G1 X106.426 Y179.042 E5.90908
G1 X106.796 Y178.150 E5.93509
G1 X107.384 Y177.384 E5.96111
G1 X108.150 Y176.796 E5.98713
G1 X109.042 Y176.426 E6.01315
G1 X109.921 Y176.311 E6.03702
G1 X110.000 Y176.300 E6.03917 F600.000
G1 X110.958 Y176.426 E6.06519
G1 X111.850 Y176.796 E6.09121
G1 X112.616 Y177.384 E6.11723
G1 X113.204 Y178.150 E6.14325
G1 X113.574 Y179.042 E6.16927
G1 X113.700 Y180.000 E6.19529
G1 X113.574 Y180.958 E6.22131
G1 X113.204 Y181.850 E6.24733
G1 X112.616 Y182.616 E6.27334
G1 X111.897 Y183.167 E6.29775
G1 X111.696 Y182.937 F10500.000
G1 X110.838 Y183.281 E6.32263 F300.000
G1 X110.000 Y183.391 E6.34541
G1 X109.122 Y183.276 E6.36926
G1 X108.304 Y182.937 E6.39311
G1 X107.602 Y182.398 E6.41696
G1 X107.063 Y181.696 E6.44081
G1 X106.724 Y180.878 E6.46466
G1 X106.609 Y180.000 E6.48852
G1 X106.724 Y179.122 E6.51237
G1 X107.063 Y178.304 E6.53622
G1 X107.602 Y177.602 E6.56007
G1 X108.304 Y177.063 E6.58392
G1 X109.122 Y176.724 E6.60777
G1 X110.000 Y176.609 E6.63162
G1 X110.838 Y176.719 E6.65440
G1 X111.696 Y177.063 E6.67928 F300.000
G1 X112.398 Y177.602 E6.70313
G1 X112.937 Y178.304 E6.72698
G1 X113.276 Y179.122 E6.75083
G1 X113.391 Y180.000 E6.77468
G1 X113.276 Y180.878 E6.79854
G1 X112.937 Y181.696 E6.82239
G1 X112.398 Y182.398 E6.84624
G1 X111.743 Y182.900 E6.86847
G1 F2400.000 E1.86847
G92 E0
G1 X110.904 Y176.325 F10500.000
G1 X145.752 Y132.252 F10500.000
G1 E5.00000 F2400.000
G1 X74.248 Y132.252 E6.92635 F600.000
G1 X74.248 Y127.748 E7.04767
G1 X145.752 Y127.748 E8.97402
G1 X145.752 Y132.192 E9.09372
G1 X145.446 Y131.946 F10500.000
G1 X74.554 Y131.946 E11.00360 F600.000
G1 X74.554 Y128.054 E11.10844
G1 X145.446 Y128.054 E13.01832
G1 X145.446 Y131.886 E13.12155
G1 X145.140 Y131.640 F10500.000
G1 X74.860 Y131.640 E15.01495 F300.000
G1 X74.860 Y128.360 E15.10332
G1 X145.140 Y128.360 E16.99673
G1 X145.140 Y131.580 E17.08348
G1 X145.140 Y132.040 F10500.000
G1 X145.752 Y147.748 F10500.000
G1 X145.752 Y152.252 E17.20479 F600.000
G1 X74.248 Y152.252 E19.13114
G1 X74.248 Y147.748 E19.25246
G1 X145.692 Y147.748 E21.17720
G1 X145.446 Y148.054 F10500.000
G1 X145.446 Y151.946 E21.28204 F600.000
G1 X74.554 Y151.946 E23.19192
G1 X74.554 Y148.054 E23.29676
G1 X145.386 Y148.054 E25.20502
G1 X145.140 Y148.360 F10500.000
G1 X145.140 Y151.640 E25.29339 F300.000
G1 X74.860 Y151.640 E27.18680
G1 X74.860 Y148.360 E27.27516
G1 X145.080 Y148.360 E29.16695
G1 X145.540 Y148.360 F10500.000
G1 X145.752 Y167.748 F10500.000
G1 X145.752 Y172.252 E29.28827 F600.000
G1 X74.248 Y172.252 E31.21462
G1 X74.248 Y167.748 E31.33594
G1 X145.692 Y167.748 E33.26067
G1 X145.446 Y168.054 F10500.000
G1 X145.446 Y171.946 E33.36551 F600.000
G1 X74.554 Y171.946 E35.27539
G1 X74.554 Y168.054 E35.38023
G1 X145.386 Y168.054 E37.28850
G1 X145.140 Y168.360 F10500.000
G1 X145.140 Y171.640 E37.37686 F300.000
G1 X74.860 Y171.640 E39.27027
G1 X74.860 Y168.360 E39.35864
G1 X145.080 Y168.360 E41.25043
G1 X145.540 Y168.360 F10500.000
G1 X145.752 Y187.748 F10500.000
G1 X145.752 Y192.252 E41.37174 F600.000
G1 X74.248 Y192.252 E43.29810
G1 X74.248 Y187.748 E43.41941
G1 X145.692 Y187.748 E45.34415
G1 X145.446 Y188.054 F10500.000
G1 X145.446 Y191.946 E45.44899 F600.000
G1 X74.554 Y191.946 E47.35887
G1 X74.554 Y188.054 E47.46371
G1 X145.386 Y188.054 E49.37197
G1 X145.140 Y188.360 F10500.000
G1 X145.140 Y191.640 E49.46034 F300.000
G1 X74.860 Y191.640 E51.35375
G1 X74.860 Y188.360 E51.44211
G1 X145.080 Y188.360 E53.33390
G1 X145.540 Y188.360 F10500.000
G1 X164.248 Y201.748 F10500.000
G1 X55.752 Y201.748 E56.25691 F600.000
G1 X55.752 Y118.252 E58.50639
G1 X164.248 Y118.252 E61.42939
G1 X164.248 Y201.688 E63.67726
G1 X164.554 Y202.054 F10500.000
G1 X55.446 Y202.054 E66.61674 F600.000
G1 X55.446 Y117.946 E68.88270
G1 X164.554 Y117.946 E71.82218
G1 X164.554 Y201.994 E74.08652
G1 X164.860 Y202.360 F10500.000
G1 X55.140 Y202.360 E77.04247 F300.000
G1 X55.140 Y117.640 E79.32491
G1 X164.860 Y117.640 E82.28086
G1 X164.860 Y202.300 E84.56168
G1 X164.514 Y202.160 F10500.000
G1 X145.564 Y187.547 F10500.000
G1 X130.470 Y172.453 E85.13675 F840.000
G1 X130.037 Y172.453 E85.14842
G1 X145.130 Y187.547 E85.72349
G1 X144.697 Y187.547 E85.73517
G1 X129.603 Y172.453 E86.31024
G1 X129.170 Y172.453 E86.32192
G1 X144.264 Y187.547 E86.89699
G1 X143.830 Y187.547 E86.90866
G1 X128.737 Y172.453 E87.48373
G1 X128.303 Y172.453 E87.49541
G1 X143.397 Y187.547 E88.07048
G1 X142.964 Y187.547 E88.08216
G1 X127.870 Y172.453 E88.65723
G1 X127.437 Y172.453 E88.66890
G1 X142.530 Y187.547 E89.24398
G1 X142.097 Y187.547 E89.25565
G1 X127.003 Y172.453 E89.83072
G1 X126.570 Y172.453 E89.84240
G1 X141.664 Y187.547 E90.41747
G1 X141.230 Y187.547 E90.42914
G1 X126.137 Y172.453 E91.00422
G1 X125.703 Y172.453 E91.01589
G1 X140.797 Y187.547 E91.59096
G1 X140.364 Y187.547 E91.60264
G1 X125.270 Y172.453 E92.17771
G1 X124.837 Y172.453 E92.18938
G1 X139.930 Y187.547 E92.76446
G1 X139.497 Y187.547 E92.77613
G1 X124.403 Y172.453 E93.35120
G1 X123.970 Y172.453 E93.36288
G1 X139.064 Y187.547 E93.93795
G1 X138.630 Y187.547 E93.94963
G1 X123.537 Y172.453 E94.52470
G1 X123.103 Y172.453 E94.53637
G1 X138.197 Y187.547 E95.11144
G1 X137.764 Y187.547 E95.12312
G1 X122.670 Y172.453 E95.69819
G1 X122.236 Y172.453 E95.70987
G1 X137.330 Y187.547 E96.28494
G1 X136.897 Y187.547 E96.29661
G1 X121.803 Y172.453 E96.87169
G1 X121.370 Y172.453 E96.88336
G1 X136.463 Y187.547 E97.45843
G1 X136.030 Y187.547 E97.47011
G1 X120.936 Y172.453 E98.04518
G1 X120.503 Y172.453 E98.05685
G1 X135.597 Y187.547 E98.63193
G1 X135.163 Y187.547 E98.64360
G1 X120.070 Y172.453 E99.21867
G1 X119.636 Y172.453 E99.23035
G1 X134.730 Y187.547 E99.80542
G1 X134.297 Y187.547 E99.81709
G1 X119.203 Y172.453 E100.39217
G1 X118.770 Y172.453 E100.40384
G1 X133.863 Y187.547 E100.97891
G1 X133.430 Y187.547 E100.99059
G1 X118.336 Y172.453 E101.56566
G1 X117.903 Y172.453 E101.57734
G1 X132.997 Y187.547 E102.15241
G1 X132.563 Y187.547 E102.16408
G1 X117.470 Y172.453 E102.73915
G1 X117.036 Y172.453 E102.75083
G1 X132.130 Y187.547 E103.32590
G1 X131.697 Y187.547 E103.33758
G1 X116.603 Y172.453 E103.91265
G1 X116.170 Y172.453 E103.92432
G1 X131.263 Y187.547 E104.49939
G1 X130.830 Y187.547 E104.51107
G1 X115.736 Y172.453 E105.08614
G1 X115.303 Y172.453 E105.09782
G1 X130.397 Y187.547 E105.67289
G1 X129.963 Y187.547 E105.68456
G1 X114.870 Y172.453 E106.25964
G1 X114.436 Y172.453 E106.27131
G1 X129.530 Y187.547 E106.84638
G1 X129.097 Y187.547 E106.85806
G1 X114.003 Y172.453 E107.43313
G1 X113.569 Y172.453 E107.44480
G1 X128.663 Y187.547 E108.01988
G1 X128.230 Y187.547 E108.03155
G1 X113.136 Y172.453 E108.60662
G1 X112.703 Y172.453 E108.61830
G1 X127.796 Y187.547 E109.19337
G1 X127.363 Y187.547 E109.20505
G1 X112.269 Y172.453 E109.78012
G1 X111.836 Y172.453 E109.79179
G1 X126.930 Y187.547 E110.36686
G1 X126.496 Y187.547 E110.37854
G1 X111.403 Y172.453 E110.95361
G1 X110.969 Y172.453 E110.96529
G1 X126.063 Y187.547 E111.54036
G1 X125.630 Y187.547 E111.55203
G1 X110.536 Y172.453 E112.12710
G1 X110.103 Y172.453 E112.13878
G1 X125.196 Y187.547 E112.71385
G1 X124.763 Y187.547 E112.72553
G1 X109.669 Y172.453 E113.30060
G1 X109.236 Y172.453 E113.31227
G1 X124.330 Y187.547 E113.88735
G1 X111.763 Y187.547 F10500.000
G1 X107.759 Y183.543 E114.03988 F840.000
G1 X108.580 Y183.931 F10500.000
G1 X112.196 Y187.547 E114.17763 F840.000
G1 X112.629 Y187.547 E114.18930
G1 X109.187 Y184.104 E114.32046
G1 X109.686 Y184.170 E114.33402
G1 X113.063 Y187.547 E114.46268
G1 X113.496 Y187.547 E114.47435
G1 X110.142 Y184.193 E114.60215
G1 X110.525 Y184.142 E114.61255
G1 X113.929 Y187.547 E114.74227
G1 X114.363 Y187.547 E114.75394
G1 X110.908 Y184.092 E114.88557
G1 X111.251 Y184.001 E114.89513
G1 X114.796 Y187.547 E115.03021
G1 X115.229 Y187.547 E115.04188
G1 X111.557 Y183.874 E115.18180
G1 X111.863 Y183.748 E115.19074
G1 X115.663 Y187.547 E115.33549
G1 X116.096 Y187.547 E115.34717
G1 X112.157 Y183.608 E115.49724
G1 X112.402 Y183.420 E115.50557
G1 X116.529 Y187.547 E115.66282
G1 X116.963 Y187.547 E115.67449
G1 X112.647 Y183.232 E115.83891
G1 X112.893 Y183.043 E115.84723
G1 X117.396 Y187.547 E116.01882
G1 X117.829 Y187.547 E116.03049
G1 X113.101 Y182.818 E116.21066
G1 X113.289 Y182.573 E116.21899
G1 X118.263 Y187.547 E116.40850
G1 X118.696 Y187.547 E116.42017
G1 X113.477 Y182.328 E116.61903
G1 X113.659 Y182.077 E116.62738
G1 X119.129 Y187.547 E116.83580
G1 X119.563 Y187.547 E116.84748
G1 X113.786 Y181.770 E117.06757
G1 X113.913 Y181.464 E117.07650
G1 X119.996 Y187.547 E117.30827
G1 X120.430 Y187.547 E117.31995
G1 X114.040 Y181.157 E117.56339
G1 X114.107 Y180.791 E117.57342
G1 X120.863 Y187.547 E117.83081
G1 X121.296 Y187.547 E117.84248
G1 X114.158 Y180.408 E118.11446
G1 X114.208 Y180.025 E118.12487
G1 X121.730 Y187.547 E118.41144
G1 X122.163 Y187.547 E118.42312
G1 X114.150 Y179.534 E118.72841
G1 X114.084 Y179.035 E118.74197
G1 X122.596 Y187.547 E119.06628
G1 X123.030 Y187.547 E119.07795
G1 X113.838 Y178.355 E119.42815
G1 X113.109 Y177.193 F10500.000
G1 X123.463 Y187.547 E119.82265 F840.000
G1 X123.896 Y187.547 E119.83432
G1 X108.803 Y172.453 E120.40939
G1 X108.369 Y172.453 E120.42107
G1 X112.807 Y176.891 E120.59016
G1 X111.645 Y176.162 F10500.000
G1 X107.936 Y172.453 E120.73146 F840.000
G1 X107.503 Y172.453 E120.74313
G1 X110.965 Y175.916 E120.87506
G1 X110.466 Y175.850 E120.88862
G1 X107.069 Y172.453 E121.01803
G1 X106.636 Y172.453 E121.02971
G1 X109.975 Y175.792 E121.15692
G1 X109.592 Y175.842 E121.16732
G1 X106.203 Y172.453 E121.29645
G1 X105.769 Y172.453 E121.30813
G1 X109.209 Y175.893 E121.43918
G1 X108.843 Y175.960 E121.44921
G1 X105.336 Y172.453 E121.58282
G1 X104.902 Y172.453 E121.59449
G1 X108.536 Y176.087 E121.73294
G1 X108.230 Y176.214 E121.74187
G1 X104.469 Y172.453 E121.88516
G1 X104.036 Y172.453 E121.89683
G1 X107.923 Y176.341 E122.04495
G1 X107.672 Y176.523 E122.05331
G1 X103.602 Y172.453 E122.20838
G1 X103.169 Y172.453 E122.22005
G1 X107.427 Y176.711 E122.38228
G1 X107.182 Y176.899 E122.39061
G1 X102.736 Y172.453 E122.56001
G1 X102.302 Y172.453 E122.57169
G1 X106.957 Y177.107 E122.74902
G1 X106.769 Y177.353 E122.75734
G1 X101.869 Y172.453 E122.94402
G1 X101.436 Y172.453 E122.95569
G1 X106.580 Y177.598 E123.15170
G1 X106.392 Y177.843 E123.16003
G1 X101.002 Y172.453 E123.36538
G1 X100.569 Y172.453 E123.37706
G1 X106.252 Y178.137 E123.59360
G1 X106.126 Y178.443 E123.60254
G1 X100.136 Y172.453 E123.83075
G1 X99.702 Y172.453 E123.84243
G1 X105.999 Y178.749 E124.08232
G1 X105.908 Y179.092 E124.09187
G1 X99.269 Y172.453 E124.34483
G1 X98.836 Y172.453 E124.35650
G1 X105.858 Y179.475 E124.62404
G1 X105.807 Y179.858 E124.63445
G1 X98.402 Y172.453 E124.91658
G1 X97.969 Y172.453 E124.92826
G1 X105.830 Y180.314 E125.22777
G1 X105.896 Y180.813 E125.24133
G1 X97.536 Y172.453 E125.55985
G1 X97.102 Y172.453 E125.57153
G1 X106.069 Y181.420 E125.91315
G1 X106.457 Y182.241 F10500.000
G1 X96.669 Y172.453 E126.28607 F840.000
G1 X96.235 Y172.453 E126.29774
G1 X111.329 Y187.547 E126.87282
G1 X110.896 Y187.547 E126.88449
G1 X95.802 Y172.453 E127.45956
G1 X95.369 Y172.453 E127.47124
G1 X110.462 Y187.547 E128.04631
G1 X110.029 Y187.547 E128.05799
G1 X94.935 Y172.453 E128.63306
G1 X94.502 Y172.453 E128.64473
G1 X109.596 Y187.547 E129.21980
G1 X109.162 Y187.547 E129.23148
G1 X94.069 Y172.453 E129.80655
G1 X93.635 Y172.453 E129.81823
G1 X108.729 Y187.547 E130.39330
G1 X108.296 Y187.547 E130.40497
G1 X93.202 Y172.453 E130.98005
G1 X92.769 Y172.453 E130.99172
G1 X107.862 Y187.547 E131.56679
G1 X107.429 Y187.547 E131.57847
G1 X92.335 Y172.453 E132.15354
G1 X91.902 Y172.453 E132.16521
G1 X106.996 Y187.547 E132.74029
G1 X106.562 Y187.547 E132.75196
G1 X91.469 Y172.453 E133.32703
G1 X91.035 Y172.453 E133.33871
G1 X106.129 Y187.547 E133.91378
G1 X105.696 Y187.547 E133.92545
G1 X90.602 Y172.453 E134.50053
G1 X90.169 Y172.453 E134.51220
G1 X105.262 Y187.547 E135.08727
G1 X104.829 Y187.547 E135.09895
G1 X89.735 Y172.453 E135.67402
G1 X89.302 Y172.453 E135.68569
G1 X104.396 Y187.547 E136.26077
G1 X103.962 Y187.547 E136.27244
G1 X88.869 Y172.453 E136.84751
G1 X88.435 Y172.453 E136.85919
G1 X103.529 Y187.547 E137.43426
G1 X103.096 Y187.547 E137.44594
