; generated by Slic3r 1.1.7 on 2014-12-08 at 05:49:28

; perimeters extrusion width = 0.40mm
; infill extrusion width = 0.40mm
; solid infill extrusion width = 0.40mm
; top infill extrusion width = 0.40mm

G21 ; set units to millimeters
M107
M190 S110 ; wait for bed temperature to be reached
M104 S240 ; set temperature
G1 Z5 F90 ; lift nozzle
G28 X0 Y0 ;
G1 X110 Y180 F9000 ;
G28 Z0 ;

M109 S240 ; wait for temperature to be reached
G90 ; use absolute coordinates
G92 E0
M82 ; use absolute distances for extrusion
M204 S1500
G1 F2400.000 E-5.00000
G92 E0
G1 Z0.200 F10500.000
G1 X54.083 Y125.918 F10500.000
G1 E5.00000 F2400.000
G1 X56.500 Y125.083 E5.06890 F240.000
G1 X163.500 Y125.083 E7.95157
G1 X165.214 Y125.478 E7.99896
G1 X166.582 Y126.583 E8.04635 F240.000
G1 X167.417 Y129.000 E8.11525
G1 X167.417 Y191.000 E9.78558
G1 X167.022 Y192.714 E9.83297
G1 X165.917 Y194.082 E9.88035
G1 X163.500 Y194.917 E9.94925
G1 X56.500 Y194.917 E12.83193
G1 X54.786 Y194.522 E12.87931
G1 X53.418 Y193.417 E12.92670
G1 X52.583 Y191.000 E12.99560
G1 X52.583 Y129.000 E14.66593
G1 X52.978 Y127.286 E14.71332
G1 X54.045 Y125.964 E14.75909
G1 X54.333 Y126.131 F10500.000
G1 X54.380 Y126.076 E14.76106 F240.000
G1 X56.500 Y125.388 E14.82109
G1 X163.500 Y125.388 E17.70377
G1 X165.141 Y125.783 E17.74924
G1 X166.424 Y126.880 E17.79472 F240.000
G1 X167.112 Y129.000 E17.85476
G1 X167.112 Y191.000 E19.52509
G1 X166.717 Y192.641 E19.57057
G1 X165.620 Y193.924 E19.61604
G1 X163.500 Y194.612 E19.67608
G1 X56.500 Y194.612 E22.55876
G1 X54.859 Y194.217 E22.60423
G1 X53.576 Y193.120 E22.64971
G1 X52.888 Y191.000 E22.70975
G1 X52.888 Y129.000 E24.38008
G1 X53.283 Y127.359 E24.42556
G1 X54.294 Y126.177 E24.46745
G1 X54.576 Y126.353 F10500.000
G1 X54.676 Y126.243 E24.47147 F240.000
G1 X56.500 Y125.694 E24.52278
G1 X163.500 Y125.694 E27.40546
G1 X165.065 Y126.088 E27.44894
G1 X166.257 Y127.176 E27.49242 F240.000
G1 X166.806 Y129.000 E27.54373
G1 X166.806 Y191.000 E29.21406
G1 X166.412 Y192.565 E29.25754
G1 X165.324 Y193.757 E29.30102
G1 X163.500 Y194.306 E29.35233
G1 X56.500 Y194.306 E32.23501
G1 X54.935 Y193.912 E32.27849
G1 X53.743 Y192.824 E32.32197
G1 X53.194 Y191.000 E32.37328
G1 X53.194 Y129.000 E34.04361
G1 X53.588 Y127.435 E34.08709
G1 X54.535 Y126.397 E34.12494
G1 F2400.000 E29.12494
G92 E0
G1 X82.867 Y187.094 F10500.000
G1 E5.00000 F2400.000
G1 X82.000 Y187.266 E5.02382 F600.000
G1 X81.133 Y187.094 E5.04764
G1 X80.397 Y186.603 E5.07147
G1 X79.906 Y185.867 E5.09529
G1 X79.734 Y185.000 E5.11911
G1 X79.906 Y184.133 E5.14293
G1 X80.397 Y183.397 E5.16675
G1 X81.133 Y182.906 E5.19058
G1 X82.000 Y182.734 E5.21440
G1 X82.867 Y182.906 E5.23822
G1 X83.603 Y183.397 E5.26204 F600.000
G1 X84.094 Y184.133 E5.28587
G1 X84.266 Y185.000 E5.30969
G1 X84.094 Y185.867 E5.33351
G1 X83.603 Y186.603 E5.35733
G1 X82.917 Y187.060 E5.37954
G1 X82.748 Y186.806 F10500.000
G1 X82.000 Y186.954 E5.40008 F600.000
G1 X81.252 Y186.806 E5.42063
G1 X80.618 Y186.382 E5.44117
G1 X80.194 Y185.748 E5.46172
G1 X80.046 Y185.000 E5.48226
G1 X80.194 Y184.252 E5.50281
G1 X80.618 Y183.618 E5.52335
G1 X81.252 Y183.194 E5.54390
G1 X82.000 Y183.046 E5.56444 F600.000
G1 X82.748 Y183.194 E5.58499
G1 X83.382 Y183.618 E5.60553
G1 X83.806 Y184.252 E5.62608
G1 X83.954 Y185.000 E5.64662
G1 X83.806 Y185.748 E5.66717
G1 X83.382 Y186.382 E5.68771
G1 X82.798 Y186.772 E5.70664
G1 X82.629 Y186.518 F10500.000
G1 X82.000 Y186.643 E5.72391 F300.000
G1 X81.371 Y186.518 E5.74118
G1 X80.838 Y186.162 E5.75845
G1 X80.482 Y185.629 E5.77572
G1 X80.357 Y185.000 E5.79298
G1 X80.482 Y184.371 E5.81025
G1 X80.838 Y183.838 E5.82752
G1 X81.371 Y183.482 E5.84479
G1 X82.000 Y183.357 E5.86206
G1 X82.629 Y183.482 E5.87932
G1 X83.162 Y183.838 E5.89659 F300.000
G1 X83.518 Y184.371 E5.91386
G1 X83.643 Y185.000 E5.93113
G1 X83.518 Y185.629 E5.94840
G1 X83.162 Y186.162 E5.96567
G1 X82.679 Y186.484 E5.98132
G1 F2400.000 E0.98132
G92 E0
G1 X82.757 Y183.104 F10500.000
G1 X75.127 Y180.752 F10500.000
G1 E5.00000 F2400.000
G1 X64.873 Y180.752 E5.27623 F600.000
G1 X64.873 Y165.248 E5.69389
G1 X75.127 Y165.248 E5.97012
G1 X75.127 Y180.692 E6.38616
G1 X74.821 Y180.446 F10500.000
G1 X65.179 Y180.446 E6.64591 F600.000
G1 X65.179 Y165.554 E7.04710
G1 X74.821 Y165.554 E7.30686
G1 X74.821 Y180.386 E7.70643
G1 X74.515 Y180.140 F10500.000
G1 X65.485 Y180.140 E7.94971 F300.000
G1 X65.485 Y165.860 E8.33442
G1 X74.515 Y165.860 E8.57770
G1 X74.515 Y180.080 E8.96080
G1 X74.515 Y180.540 F10500.000
G1 F2400.000 E3.96080
G92 E0
G1 X70.000 Y137.766 F10500.000
G1 E5.00000 F2400.000
G1 X69.037 Y137.575 E5.02645 F600.000
G1 X68.221 Y137.029 E5.05290
G1 X67.675 Y136.213 E5.07935
G1 X67.484 Y135.250 E5.10580
G1 X67.675 Y134.287 E5.13225
G1 X68.221 Y133.471 E5.15870
G1 X69.037 Y132.925 E5.18515
G1 X70.000 Y132.734 E5.21160
G1 X70.180 Y132.770 E5.21654
G1 X70.963 Y132.925 E5.23805 F600.000
G1 X71.779 Y133.471 E5.26450
G1 X72.325 Y134.287 E5.29095
G1 X72.516 Y135.250 E5.31740
G1 X72.325 Y136.213 E5.34385
G1 X71.779 Y137.029 E5.37030
G1 X70.963 Y137.575 E5.39675
G1 X70.059 Y137.755 E5.42158
G1 X70.000 Y137.454 F10500.000
G1 X69.156 Y137.287 E5.44476 F600.000
G1 X68.441 Y136.809 E5.46793
G1 X67.963 Y136.094 E5.49110
G1 X67.796 Y135.250 E5.51428
G1 X67.963 Y134.406 E5.53745
G1 X68.441 Y133.691 E5.56062
G1 X69.156 Y133.213 E5.58379
G1 X69.277 Y133.189 E5.58710
G1 X70.000 Y133.046 E5.60697 F600.000
G1 X70.844 Y133.213 E5.63014
G1 X71.559 Y133.691 E5.65331
G1 X72.037 Y134.406 E5.67649
G1 X72.204 Y135.250 E5.69966
G1 X72.037 Y136.094 E5.72283
G1 X71.559 Y136.809 E5.74601
G1 X70.844 Y137.287 E5.76918
G1 X70.059 Y137.443 E5.79074
G1 X70.000 Y137.143 F10500.000
G1 X69.276 Y136.999 E5.81063 F300.000
G1 X68.662 Y136.588 E5.83053
G1 X68.251 Y135.974 E5.85042
G1 X68.107 Y135.250 E5.87032
G1 X68.251 Y134.526 E5.89022
G1 X68.662 Y133.912 E5.91011
G1 X69.276 Y133.501 E5.93001
G1 X70.000 Y133.357 E5.94990
G1 X70.061 Y133.369 E5.95157
G1 X70.724 Y133.501 E5.96980 F300.000
G1 X71.338 Y133.912 E5.98970
G1 X71.749 Y134.526 E6.00959
G1 X71.893 Y135.250 E6.02949
G1 X71.749 Y135.974 E6.04939
G1 X71.338 Y136.588 E6.06928
G1 X70.724 Y136.999 E6.08918
G1 X70.059 Y137.131 E6.10746
G1 F2400.000 E1.10746
G92 E0
G1 X70.089 Y132.970 F10500.000
G1 X70.000 Y138.557 F10500.000
G1 E5.00000 F2400.000
G1 X70.149 Y138.572 E5.00402 F600.000
G1 X71.647 Y138.720 E5.04459 F600.000
G1 X73.231 Y139.200 E5.08918
G1 X74.690 Y139.980 E5.13376
G1 X75.970 Y141.030 E5.17835
G1 X77.020 Y142.310 E5.22294
G1 X77.800 Y143.769 E5.26753
G1 X78.280 Y145.353 E5.31212
G1 X78.443 Y147.000 E5.35671
G1 X78.280 Y148.647 E5.40130
G1 X77.800 Y150.231 E5.44588
G1 X77.020 Y151.690 E5.49047
G1 X75.970 Y152.970 E5.53506
G1 X74.690 Y154.020 E5.57965
G1 X73.231 Y154.800 E5.62424
G1 X71.647 Y155.280 E5.66882
G1 X70.000 Y155.443 E5.71341
G1 X68.353 Y155.280 E5.75800
G1 X66.769 Y154.800 E5.80259
G1 X65.310 Y154.020 E5.84718
G1 X64.030 Y152.970 E5.89177
G1 X62.980 Y151.690 E5.93635
G1 X62.200 Y150.231 E5.98094
G1 X61.720 Y148.647 E6.02553
G1 X61.557 Y147.000 E6.07012
G1 X61.720 Y145.353 E6.11471
G1 X62.200 Y143.769 E6.15930
G1 X62.980 Y142.310 E6.20388
G1 X64.030 Y141.030 E6.24847
G1 X65.310 Y139.980 E6.29306
G1 X66.769 Y139.200 E6.33765
G1 X68.353 Y138.720 E6.38224
G1 X69.940 Y138.563 E6.42521
G1 X70.000 Y138.865 F10500.000
G1 X71.587 Y139.021 E6.46818 F600.000
G1 X73.113 Y139.484 E6.51114
G1 X74.520 Y140.236 E6.55411
G1 X75.753 Y141.247 E6.59708
G1 X76.764 Y142.480 E6.64004
G1 X77.516 Y143.887 E6.68301
G1 X77.979 Y145.413 E6.72597
G1 X78.135 Y147.000 E6.76894
G1 X77.979 Y148.587 E6.81191
G1 X77.516 Y150.113 E6.85487
G1 X76.764 Y151.520 E6.89784
G1 X75.753 Y152.753 E6.94080
G1 X74.520 Y153.764 E6.98377
G1 X73.113 Y154.516 E7.02673
G1 X71.587 Y154.979 E7.06970
G1 X70.000 Y155.135 E7.11266
G1 X68.413 Y154.979 E7.15563
G1 X66.887 Y154.516 E7.19860
G1 X65.480 Y153.764 E7.24156
G1 X64.247 Y152.753 E7.28453
G1 X63.236 Y151.520 E7.32749
G1 X62.484 Y150.113 E7.37046
G1 X62.021 Y148.587 E7.41342
G1 X61.865 Y147.000 E7.45639
G1 X62.021 Y145.413 E7.49936
G1 X62.484 Y143.887 E7.54232
G1 X63.236 Y142.480 E7.58529
G1 X64.247 Y141.247 E7.62825
G1 X65.480 Y140.236 E7.67122
G1 X66.887 Y139.484 E7.71419
G1 X68.413 Y139.021 E7.75715
G1 X68.531 Y139.009 E7.76036
G1 X69.940 Y138.870 E7.79850 F600.000
G1 X70.000 Y139.172 F10500.000
G1 X70.089 Y139.181 E7.80090 F300.000
G1 X71.527 Y139.322 E7.83985 F300.000
G1 X72.996 Y139.768 E7.88119
G1 X74.349 Y140.491 E7.92253
G1 X75.535 Y141.465 E7.96387
G1 X76.509 Y142.651 E8.00522
G1 X77.232 Y144.004 E8.04656
G1 X77.678 Y145.473 E8.08790
G1 X77.828 Y147.000 E8.12925
G1 X77.678 Y148.527 E8.17059
G1 X77.232 Y149.996 E8.21193
G1 X76.509 Y151.349 E8.25328
G1 X75.535 Y152.535 E8.29462
G1 X74.349 Y153.509 E8.33596
G1 X72.996 Y154.232 E8.37731
G1 X71.527 Y154.678 E8.41865
G1 X70.000 Y154.828 E8.45999
G1 X68.473 Y154.678 E8.50134
G1 X67.004 Y154.232 E8.54268
G1 X65.651 Y153.509 E8.58402
G1 X64.465 Y152.535 E8.62537
G1 X63.491 Y151.349 E8.66671
G1 X62.768 Y149.996 E8.70805
G1 X62.322 Y148.527 E8.74939
G1 X62.172 Y147.000 E8.79074
G1 X62.322 Y145.473 E8.83208
G1 X62.768 Y144.004 E8.87343
G1 X63.491 Y142.651 E8.91477
G1 X64.465 Y141.465 E8.95611
G1 X65.651 Y140.491 E8.99746
G1 X67.004 Y139.768 E9.03880
G1 X68.473 Y139.322 E9.08014
G1 X69.940 Y139.178 E9.11987
G1 X70.301 Y138.842 F10500.000
G1 F2400.000 E4.11987
G92 E0
G1 X70.000 Y156.234 F10500.000
G1 E5.00000 F2400.000
G1 X70.180 Y156.270 E5.00495 F600.000
G1 X70.963 Y156.425 E5.02645 F600.000
G1 X71.779 Y156.971 E5.05290
G1 X72.325 Y157.787 E5.07935
G1 X72.516 Y158.750 E5.10580
G1 X72.325 Y159.713 E5.13225
G1 X71.779 Y160.529 E5.15870
G1 X70.963 Y161.075 E5.18515
G1 X70.000 Y161.266 E5.21160
G1 X69.037 Y161.075 E5.23805
G1 X68.221 Y160.529 E5.26450
G1 X67.675 Y159.713 E5.29095
G1 X67.484 Y158.750 E5.31740
G1 X67.675 Y157.787 E5.34385
G1 X68.221 Y156.971 E5.37030
G1 X69.037 Y156.425 E5.39675
G1 X69.941 Y156.245 E5.42158
G1 X70.000 Y156.546 F10500.000
G1 X70.844 Y156.713 E5.44476 F600.000
G1 X71.559 Y157.191 E5.46793
G1 X72.037 Y157.906 E5.49110
G1 X72.204 Y158.750 E5.51428
G1 X72.037 Y159.594 E5.53745
G1 X71.559 Y160.309 E5.56062
G1 X70.844 Y160.787 E5.58380
G1 X70.000 Y160.954 E5.60697
G1 X69.156 Y160.787 E5.63014
G1 X68.441 Y160.309 E5.65331
G1 X67.963 Y159.594 E5.67649
G1 X67.796 Y158.750 E5.69966
G1 X67.963 Y157.906 E5.72283
G1 X68.441 Y157.191 E5.74601
G1 X69.156 Y156.713 E5.76918
G1 X69.277 Y156.689 E5.77249
G1 X69.941 Y156.557 E5.79074 F600.000
G1 X70.000 Y156.857 F10500.000
G1 X70.061 Y156.869 E5.79241 F300.000
G1 X70.724 Y157.001 E5.81063 F300.000
G1 X71.338 Y157.412 E5.83053
G1 X71.749 Y158.026 E5.85043
G1 X71.893 Y158.750 E5.87032
G1 X71.749 Y159.474 E5.89022
G1 X71.338 Y160.088 E5.91012
G1 X70.724 Y160.499 E5.93001
G1 X70.000 Y160.643 E5.94991
G1 X69.276 Y160.499 E5.96980
G1 X68.662 Y160.088 E5.98970
G1 X68.251 Y159.474 E6.00960
G1 X68.107 Y158.750 E6.02949
G1 X68.251 Y158.026 E6.04939
G1 X68.662 Y157.412 E6.06928
G1 X69.276 Y157.001 E6.08918
G1 X69.941 Y156.869 E6.10746
G1 X70.286 Y156.539 F10500.000
G1 X82.716 Y156.124 F10500.000
G1 X82.000 Y156.266 E6.12713 F600.000
G1 X81.133 Y156.094 E6.15095
G1 X80.397 Y155.602 E6.17477
G1 X79.906 Y154.867 E6.19859
G1 X79.734 Y154.000 E6.22242
G1 X79.906 Y153.133 E6.24624
G1 X80.397 Y152.398 E6.27006
G1 X81.133 Y151.906 E6.29388
G1 X82.000 Y151.734 E6.31770
G1 X82.867 Y151.906 E6.34153
G1 X83.603 Y152.398 E6.36535
G1 X84.094 Y153.133 E6.38917
G1 X84.266 Y154.000 E6.41299
G1 X84.094 Y154.867 E6.43681
G1 X83.766 Y155.358 E6.45273
G1 X155.234 Y155.358 E8.37817
G1 X154.906 Y154.867 E8.39409
G1 X154.734 Y154.000 E8.41791
G1 X154.906 Y153.133 E8.44173
G1 X155.397 Y152.398 E8.46555
G1 X156.133 Y151.906 E8.48938
G1 X157.000 Y151.734 E8.51320
G1 X157.867 Y151.906 E8.53702
G1 X158.603 Y152.398 E8.56084
G1 X159.094 Y153.133 E8.58466
G1 X159.266 Y154.000 E8.60849
G1 X159.094 Y154.867 E8.63231
G1 X158.603 Y155.602 E8.65613
G1 X157.867 Y156.094 E8.67995
G1 X157.000 Y156.266 E8.70377
G1 X156.284 Y156.124 E8.72344
G1 X156.284 Y182.097 E9.42317
G1 X82.716 Y182.097 E11.40516
G1 X82.716 Y156.184 E12.10327
G1 X83.022 Y155.623 F10500.000
G1 X82.748 Y155.806 E12.11214 F600.000
G1 X82.000 Y155.954 E12.13269
G1 X81.252 Y155.806 E12.15323
G1 X80.618 Y155.382 E12.17378
G1 X80.194 Y154.748 E12.19432
G1 X80.046 Y154.000 E12.21487
G1 X80.194 Y153.252 E12.23541
G1 X80.618 Y152.618 E12.25596
G1 X81.252 Y152.194 E12.27650
G1 X82.000 Y152.046 E12.29705
G1 X82.748 Y152.194 E12.31759
G1 X83.382 Y152.618 E12.33814
G1 X83.806 Y153.252 E12.35868
G1 X83.954 Y154.000 E12.37923
G1 X83.806 Y154.748 E12.39977
G1 X83.382 Y155.382 E12.42032
G1 X83.219 Y155.491 E12.42558
G1 X83.272 Y155.664 E12.43047
G1 X155.728 Y155.664 E14.38249
G1 X155.781 Y155.491 E14.38738
G1 X155.618 Y155.382 E14.39265
G1 X155.194 Y154.748 E14.41319
G1 X155.046 Y154.000 E14.43374
G1 X155.194 Y153.252 E14.45428
G1 X155.618 Y152.618 E14.47483
G1 X156.252 Y152.194 E14.49537
G1 X157.000 Y152.046 E14.51592
G1 X157.748 Y152.194 E14.53646
G1 X158.382 Y152.618 E14.55701
G1 X158.806 Y153.252 E14.57755
G1 X158.954 Y154.000 E14.59810
G1 X158.806 Y154.748 E14.61864
G1 X158.382 Y155.382 E14.63919
G1 X157.748 Y155.806 E14.65973
G1 X157.000 Y155.954 E14.68028
G1 X156.252 Y155.806 E14.70082
G1 X155.978 Y155.623 E14.70970
G1 X155.978 Y181.791 E15.41468
G1 X83.022 Y181.791 E17.38020
G1 X83.022 Y155.683 E18.08357
G1 X82.852 Y155.369 F10500.000
G1 X82.629 Y155.518 E18.09080 F300.000
G1 X82.000 Y155.643 E18.10807
G1 X81.371 Y155.518 E18.12534
G1 X80.838 Y155.162 E18.14261
G1 X80.482 Y154.629 E18.15988
G1 X80.357 Y154.000 E18.17714
G1 X80.482 Y153.371 E18.19441
G1 X80.838 Y152.838 E18.21168
G1 X81.371 Y152.482 E18.22895
G1 X82.000 Y152.357 E18.24622
G1 X82.629 Y152.482 E18.26348
G1 X83.162 Y152.838 E18.28075 F300.000
G1 X83.518 Y153.371 E18.29802
G1 X83.643 Y154.000 E18.31529
G1 X83.518 Y154.629 E18.33256
G1 X83.162 Y155.162 E18.34983
G1 X82.902 Y155.335 E18.35824
G1 F2400.000 E13.35824
G92 E0
G1 X82.892 Y152.783 F10500.000
G1 X155.357 Y154.000 F10500.000
G1 E5.00000 F2400.000
G1 X155.482 Y153.371 E5.01727 F300.000
G1 X155.838 Y152.838 E5.03454
G1 X156.371 Y152.482 E5.05181
G1 X157.000 Y152.357 E5.06907
G1 X157.629 Y152.482 E5.08634
G1 X158.162 Y152.838 E5.10361 F300.000
G1 X158.518 Y153.371 E5.12088
G1 X158.643 Y154.000 E5.13815
G1 X158.518 Y154.629 E5.15541
G1 X158.162 Y155.162 E5.17268
G1 X157.629 Y155.518 E5.18995
G1 X157.000 Y155.643 E5.20722
G1 X156.371 Y155.518 E5.22449
G1 X155.838 Y155.162 E5.24176
G1 X155.482 Y154.629 E5.25902
G1 X155.369 Y154.059 E5.27467
G1 F2400.000 E0.27467
G92 E0
G1 X157.782 Y152.852 F10500.000
G1 X155.673 Y155.970 F10500.000
G1 E5.00000 F2400.000
G1 X155.673 Y181.485 E5.68740 F300.000
G1 X83.327 Y181.485 E7.63644
G1 X83.327 Y155.970 E8.32383
G1 X155.613 Y155.970 E10.27125
G1 X156.073 Y155.970 F10500.000
G1 F2400.000 E5.27125
G92 E0
G1 X96.844 Y141.367 F10500.000
G1 E5.00000 F2400.000
G1 X96.353 Y142.103 E5.02382 F600.000
G1 X95.617 Y142.594 E5.04765
G1 X94.750 Y142.766 E5.07147
G1 X93.883 Y142.594 E5.09529
G1 X93.147 Y142.103 E5.11911
G1 X92.656 Y141.367 E5.14294
G1 X92.484 Y140.500 E5.16676
G1 X92.656 Y139.633 E5.19058
G1 X93.147 Y138.897 E5.21440
G1 X93.883 Y138.406 E5.23823
G1 X94.750 Y138.234 E5.26205
G1 X95.617 Y138.406 E5.28587
G1 X96.353 Y138.897 E5.30969 F600.000
G1 X96.844 Y139.633 E5.33351
G1 X97.016 Y140.500 E5.35733
G1 X96.855 Y141.308 E5.37954
G1 X96.556 Y141.248 F10500.000
G1 X96.132 Y141.882 E5.40008 F600.000
G1 X95.498 Y142.306 E5.42063
G1 X94.750 Y142.454 E5.44118
G1 X94.002 Y142.306 E5.46172
G1 X93.368 Y141.882 E5.48227
