; generated by Slic3r 1.1.7 on 2014-12-08 at 08:23:06

; perimeters extrusion width = 0.40mm
; infill extrusion width = 0.40mm
; solid infill extrusion width = 0.40mm
; top infill extrusion width = 0.40mm

G21 ; set units to millimeters
M107
M190 S110 ; wait for bed temperature to be reached
M104 S240 ; set temperature
G1 Z5 F90 ; lift nozzle
G28 X0 Y0 ;
G1 X110 Y180 F9000 ;
G28 Z0 ;

M109 S240 ; wait for temperature to be reached
G90 ; use absolute coordinates
G92 E0
M82 ; use absolute distances for extrusion
M204 S1500
G1 F2400.000 E-5.00000
G92 E0
G1 Z0.200 F10500.000
G1 X91.075 Y139.525 F10500.000
G1 E5.00000 F2400.000
G1 X91.960 Y139.014 E5.02754 F240.000
G1 X93.045 Y138.564 E5.05919
G1 X94.033 Y138.299 E5.08674
G1 X95.081 Y138.161 E5.11523
G1 X95.709 Y138.113 E5.13219
G1 X124.840 Y138.146 E5.91700
G1 X126.004 Y138.299 E5.94864 F240.000
G1 X126.992 Y138.564 E5.97620
G1 X128.078 Y139.014 E6.00785
G1 X128.963 Y139.525 E6.03539
G1 X129.895 Y140.240 E6.06704
G1 X130.618 Y140.963 E6.09458
G1 X130.686 Y141.052 E6.09762
G1 X131.496 Y143.437 E6.16545
G1 X131.496 Y176.414 E7.05390
G1 X130.687 Y178.798 E7.12172
G1 X130.618 Y178.888 E7.12476
G1 X129.895 Y179.611 E7.15230
G1 X128.963 Y180.326 E7.18395
G1 X128.078 Y180.837 E7.21150
G1 X126.992 Y181.287 E7.24315
G1 X126.004 Y181.551 E7.27070
G1 X124.349 Y181.738 E7.31559
G1 X95.161 Y181.854 E8.10195
G1 X93.996 Y181.701 E8.13360
G1 X93.008 Y181.436 E8.16116
G1 X91.923 Y180.986 E8.19280
G1 X91.037 Y180.475 E8.22034
G1 X90.944 Y180.404 E8.22352
G1 X90.105 Y179.760 E8.25200
G1 X89.382 Y179.037 E8.27954
G1 X89.314 Y178.948 E8.28255
G1 X88.504 Y176.563 E8.35041
G1 X88.542 Y143.431 E9.24302
G1 X89.351 Y141.052 E9.31074
G1 X89.419 Y140.963 E9.31375
G1 X90.142 Y140.240 E9.34129
G1 X91.027 Y139.561 E9.37133
G1 X91.261 Y139.767 F10500.000
G1 X92.077 Y139.296 E9.39672 F240.000
G1 X93.162 Y138.847 E9.42837
G1 X94.073 Y138.603 E9.45377
G1 X95.121 Y138.465 E9.48226
G1 X95.709 Y138.418 E9.49814
G1 X124.800 Y138.449 E10.28187
G1 X125.964 Y138.603 E10.31352 F240.000
G1 X126.875 Y138.847 E10.33892
G1 X127.961 Y139.296 E10.37057
G1 X128.777 Y139.768 E10.39597
G1 X129.709 Y140.483 E10.42762
G1 X130.375 Y141.149 E10.45301
G1 X130.444 Y141.238 E10.45604
G1 X131.190 Y143.437 E10.51858
G1 X131.190 Y176.414 E11.40703
G1 X130.444 Y178.612 E11.46956
G1 X130.375 Y178.702 E11.47260
G1 X129.709 Y179.368 E11.49799
G1 X128.777 Y180.083 E11.52964
G1 X127.961 Y180.555 E11.55503
G1 X126.875 Y181.004 E11.58668
G1 X125.964 Y181.248 E11.61209
G1 X124.347 Y181.432 E11.65594
G1 X95.200 Y181.551 E12.44118
G1 X94.036 Y181.397 E12.47284
G1 X93.125 Y181.153 E12.49824
G1 X92.040 Y180.704 E12.52989
G1 X91.223 Y180.233 E12.55528
G1 X91.130 Y180.161 E12.55845
G1 X90.291 Y179.517 E12.58693
G1 X89.625 Y178.851 E12.61233
G1 X89.557 Y178.762 E12.61534
G1 X88.810 Y176.563 E12.67789
G1 X88.847 Y143.432 E13.57050
G1 X89.594 Y141.238 E13.63293
G1 X89.662 Y141.149 E13.63594
G1 X90.328 Y140.483 E13.66133
G1 X91.213 Y139.804 E13.69137
G1 X91.447 Y140.010 F10500.000
G1 X92.194 Y139.579 E13.71461 F240.000
G1 X93.279 Y139.129 E13.74626
G1 X94.113 Y138.906 E13.76951
G1 X95.161 Y138.768 E13.79800
G1 X95.709 Y138.724 E13.81280
G1 X124.760 Y138.752 E14.59546
G1 X125.925 Y138.906 E14.62711 F240.000
G1 X126.758 Y139.129 E14.65036
G1 X127.844 Y139.579 E14.68201
G1 X128.591 Y140.010 E14.70525
G1 X129.523 Y140.725 E14.73691
G1 X130.133 Y141.335 E14.76015
G1 X130.201 Y141.424 E14.76317
G1 X130.884 Y143.437 E14.82042
G1 X130.884 Y176.414 E15.70887
G1 X130.201 Y178.426 E15.76611
G1 X130.133 Y178.516 E15.76914
G1 X129.523 Y179.125 E15.79238
G1 X128.591 Y179.841 E15.82403
G1 X127.844 Y180.272 E15.84728
G1 X126.758 Y180.722 E15.87893
G1 X125.925 Y180.945 E15.90218
G1 X124.346 Y181.127 E15.94500
G1 X95.240 Y181.248 E16.72913
G1 X94.075 Y181.094 E16.76078
G1 X93.242 Y180.871 E16.78403
G1 X92.157 Y180.421 E16.81568
G1 X91.409 Y179.990 E16.83892
G1 X91.316 Y179.918 E16.84209
G1 X90.477 Y179.275 E16.87057
G1 X89.867 Y178.665 E16.89382
G1 X89.799 Y178.576 E16.89683
G1 X89.116 Y176.563 E16.95409
G1 X89.153 Y143.432 E17.84668
G1 X89.836 Y141.424 E17.90383
G1 X89.904 Y141.335 E17.90684
G1 X90.515 Y140.725 E17.93008
G1 X91.399 Y140.046 E17.96012
G1 F2400.000 E12.96012
G92 E0
G1 X126.827 Y149.289 F10500.000
G1 E5.00000 F2400.000
G1 X126.199 Y149.771 E5.02131 F600.000
G1 X125.297 Y150.144 E5.04763
G1 X124.328 Y150.272 E5.07394
G1 X123.360 Y150.144 E5.10026
G1 X122.457 Y149.771 E5.12658
G1 X121.830 Y149.289 E5.14789
G1 X121.830 Y143.771 E5.29656
G1 X122.457 Y143.289 E5.31786
G1 X123.360 Y142.915 E5.34418
G1 X124.328 Y142.788 E5.37050
G1 X125.297 Y142.915 E5.39682
G1 X126.199 Y143.289 E5.42313
G1 X126.827 Y143.771 E5.44444
G1 X126.827 Y149.229 E5.59150
G1 X127.133 Y149.440 F10500.000
G1 X126.354 Y150.038 E5.61795 F600.000
G1 X125.377 Y150.442 E5.64644
G1 X124.328 Y150.580 E5.67493
G1 X123.280 Y150.442 E5.70341
G1 X122.303 Y150.038 E5.73190
G1 X121.524 Y149.440 E5.75835
G1 X121.524 Y143.620 E5.91515
G1 X122.303 Y143.022 E5.94160
G1 X123.280 Y142.617 E5.97009
G1 X124.328 Y142.479 E5.99857
G1 X125.377 Y142.617 E6.02706
G1 X126.354 Y143.022 E6.05555
G1 X127.133 Y143.620 E6.08200
G1 X127.133 Y149.380 E6.23718
G1 X127.438 Y143.469 F10500.000
G1 X127.438 Y149.591 E6.40210 F300.000
G1 X126.508 Y150.305 E6.43370
G1 X125.457 Y150.740 E6.46436
G1 X124.328 Y150.889 E6.49501
G1 X123.200 Y150.740 E6.52567
G1 X122.149 Y150.305 E6.55632
G1 X121.218 Y149.591 E6.58792
G1 X121.218 Y143.469 E6.75284
G1 X122.149 Y142.755 E6.78444
G1 X123.200 Y142.320 E6.81510
G1 X124.328 Y142.171 E6.84575
G1 X125.457 Y142.320 E6.87641
G1 X126.508 Y142.755 E6.90707
G1 X127.391 Y143.433 E6.93705
G1 X127.168 Y143.764 F10500.000
G1 X126.497 Y143.772 F10500.000
G1 X126.625 Y143.900 E6.94194 F840.000
G1 X126.625 Y144.348 E6.95401
G1 X125.498 Y143.220 E6.99697
G1 X124.895 Y143.066 E7.01372
G1 X126.625 Y144.796 E7.07963
G1 X126.625 Y145.244 E7.09169
G1 X124.380 Y142.998 E7.17725
G1 X123.972 Y143.038 E7.18829
G1 X126.625 Y145.692 E7.28938
G1 X126.625 Y146.139 E7.30145
G1 X123.576 Y143.090 E7.41762
G1 X123.227 Y143.189 E7.42740
G1 X126.625 Y146.587 E7.55688
G1 X126.625 Y147.035 E7.56895
G1 X122.910 Y143.320 E7.71050
G1 X122.593 Y143.451 E7.71973
G1 X126.625 Y147.483 E7.87335
G1 X126.625 Y147.931 E7.88542
G1 X122.333 Y143.639 E8.04895
G1 X122.089 Y143.843 E8.05752
G1 X126.625 Y148.379 E8.23035
G1 X126.625 Y148.827 E8.24242
G1 X122.032 Y144.233 E8.41744
G1 X122.032 Y144.681 E8.42950
G1 X126.568 Y149.217 E8.60233
G1 X126.324 Y149.421 E8.61090
G1 X122.032 Y145.129 E8.77443
G1 X122.032 Y145.577 E8.78650
G1 X126.063 Y149.609 E8.94012
G1 X125.747 Y149.740 E8.94935
G1 X122.032 Y146.025 E9.09090
G1 X122.032 Y146.472 E9.10297
G1 X125.430 Y149.871 E9.23245
G1 X125.080 Y149.969 E9.24225
G1 X122.032 Y146.920 E9.35839
G1 X122.032 Y147.368 E9.37045
G1 X124.682 Y150.019 E9.47145
G1 X124.277 Y150.062 E9.48243
G1 X122.032 Y147.816 E9.56799
G1 X122.032 Y148.264 E9.58005
G1 X123.761 Y149.994 E9.64596
G1 X123.165 Y149.845 E9.66252
G1 X122.032 Y148.712 E9.70570
G1 X122.032 Y149.160 E9.71777
G1 X122.160 Y149.288 E9.72266
G1 F2400.000 E4.72266
G92 E0
G1 X126.827 Y170.562 F10500.000
G1 E5.00000 F2400.000
G1 X126.827 Y176.080 E5.14867 F600.000
G1 X126.199 Y176.562 E5.16998
G1 X125.297 Y176.935 E5.19630
G1 X124.328 Y177.063 E5.22261
G1 X123.360 Y176.935 E5.24893
G1 X122.443 Y176.550 E5.27573
G1 X121.830 Y176.080 E5.29654
G1 X121.830 Y170.562 E5.44521
G1 X122.457 Y170.080 E5.46652
G1 X123.360 Y169.706 E5.49284
G1 X124.328 Y169.579 E5.51915
G1 X125.297 Y169.706 E5.54547
G1 X126.199 Y170.080 E5.57179
G1 X126.779 Y170.525 E5.59148
G1 X127.133 Y170.411 F10500.000
G1 X127.133 Y176.231 E5.74827 F600.000
G1 X126.354 Y176.829 E5.77473
G1 X125.377 Y177.233 E5.80322
G1 X124.328 Y177.371 E5.83170
G1 X123.280 Y177.233 E5.86019
G1 X122.303 Y176.829 E5.88868
G1 X122.257 Y176.793 E5.89026
G1 X121.524 Y176.231 E5.91513
G1 X121.524 Y170.411 E6.07192
G1 X122.303 Y169.813 E6.09838
G1 X123.280 Y169.409 E6.12687
G1 X124.328 Y169.270 E6.15535
G1 X125.377 Y169.409 E6.18384
G1 X126.354 Y169.813 E6.21233
G1 X127.085 Y170.374 E6.23716
G1 X127.438 Y170.260 F10500.000
G1 X127.438 Y176.382 E6.40208 F300.000
G1 X126.508 Y177.096 E6.43368
G1 X125.457 Y177.531 E6.46434
G1 X124.328 Y177.680 E6.49499
G1 X123.200 Y177.531 E6.52565
G1 X122.149 Y177.096 E6.55631
G1 X121.218 Y176.382 E6.58791
G1 X121.218 Y170.260 E6.75283
G1 X122.149 Y169.546 E6.78443
G1 X123.200 Y169.111 E6.81508
G1 X124.328 Y168.962 E6.84574
G1 X125.457 Y169.111 E6.87639
G1 X126.508 Y169.546 E6.90705
G1 X127.391 Y170.224 E6.93703
G1 X127.168 Y170.555 F10500.000
G1 X126.497 Y170.563 F10500.000
G1 X126.625 Y170.691 E6.94192 F840.000
G1 X126.625 Y171.139 E6.95399
G1 X125.498 Y170.011 E6.99695
G1 X124.895 Y169.857 E7.01370
G1 X126.625 Y171.587 E7.07961
G1 X126.625 Y172.035 E7.09168
G1 X124.380 Y169.789 E7.17724
G1 X123.972 Y169.829 E7.18827
G1 X126.625 Y172.483 E7.28936
G1 X126.625 Y172.930 E7.30143
G1 X123.576 Y169.881 E7.41760
G1 X123.227 Y169.980 E7.42738
G1 X126.625 Y173.378 E7.55687
G1 X126.625 Y173.826 E7.56893
G1 X122.910 Y170.111 E7.71048
G1 X122.593 Y170.242 E7.71972
G1 X126.625 Y174.274 E7.87333
G1 X126.625 Y174.722 E7.88540
G1 X122.333 Y170.430 E8.04893
G1 X122.089 Y170.634 E8.05750
G1 X126.625 Y175.170 E8.23033
G1 X126.625 Y175.618 E8.24240
G1 X122.032 Y171.024 E8.41742
G1 X122.032 Y171.472 E8.42949
G1 X126.568 Y176.008 E8.60232
G1 X126.324 Y176.212 E8.61088
G1 X122.032 Y171.920 E8.77442
G1 X122.032 Y172.368 E8.78648
G1 X126.063 Y176.400 E8.94010
G1 X125.747 Y176.531 E8.94934
G1 X122.032 Y172.816 E9.09089
G1 X122.032 Y173.263 E9.10295
G1 X125.430 Y176.662 E9.23244
G1 X125.080 Y176.760 E9.24223
G1 X122.032 Y173.711 E9.35837
G1 X122.032 Y174.159 E9.37044
G1 X124.682 Y176.810 E9.47143
G1 X124.277 Y176.853 E9.48241
G1 X122.032 Y174.607 E9.56797
G1 X122.032 Y175.055 E9.58004
G1 X123.761 Y176.785 E9.64594
G1 X123.165 Y176.636 E9.66250
G1 X122.032 Y175.503 E9.70569
G1 X122.032 Y175.951 E9.71775
G1 X122.160 Y176.079 E9.72264
G1 F2400.000 E4.72264
G92 E0
G1 X98.170 Y170.711 F10500.000
G1 E5.00000 F2400.000
G1 X98.170 Y176.229 E5.14867 F600.000
G1 X97.543 Y176.711 E5.16998
G1 X96.640 Y177.085 E5.19630
G1 X95.672 Y177.212 E5.22261
G1 X94.703 Y177.085 E5.24893
G1 X93.786 Y176.700 E5.27573
G1 X93.173 Y176.229 E5.29654
G1 X93.173 Y170.711 E5.44521
G1 X93.801 Y170.229 E5.46652
G1 X94.703 Y169.856 E5.49284
G1 X95.672 Y169.728 E5.51915
G1 X96.640 Y169.856 E5.54547
G1 X97.543 Y170.229 E5.57179
G1 X98.123 Y170.674 E5.59148
G1 X98.476 Y170.560 F10500.000
G1 X98.476 Y176.380 E5.74827 F600.000
G1 X97.697 Y176.978 E5.77473
G1 X96.720 Y177.383 E5.80322
G1 X95.672 Y177.521 E5.83170
G1 X94.623 Y177.383 E5.86019
G1 X93.646 Y176.978 E5.88868
G1 X93.600 Y176.942 E5.89026
G1 X92.867 Y176.380 E5.91513
G1 X92.867 Y170.560 E6.07192
G1 X93.646 Y169.962 E6.09838
G1 X94.623 Y169.558 E6.12687
G1 X95.672 Y169.420 E6.15535
G1 X96.720 Y169.558 E6.18384
G1 X97.697 Y169.962 E6.21233
G1 X98.428 Y170.524 E6.23716
G1 X98.782 Y170.409 F10500.000
G1 X98.782 Y176.531 E6.40208 F300.000
G1 X97.851 Y177.245 E6.43368
G1 X96.800 Y177.680 E6.46434
G1 X95.672 Y177.829 E6.49499
G1 X94.544 Y177.680 E6.52565
G1 X93.492 Y177.245 E6.55631
G1 X92.562 Y176.531 E6.58791
G1 X92.562 Y170.409 E6.75283
G1 X93.492 Y169.695 E6.78443
G1 X94.544 Y169.260 E6.81508
G1 X95.672 Y169.111 E6.84574
G1 X96.800 Y169.260 E6.87639
G1 X97.851 Y169.695 E6.90705
G1 X98.734 Y170.373 E6.93703
G1 X98.511 Y170.704 F10500.000
G1 X97.840 Y170.712 F10500.000
G1 X97.968 Y170.840 E6.94192 F840.000
G1 X97.968 Y171.288 E6.95399
G1 X96.841 Y170.161 E6.99695
G1 X96.239 Y170.006 E7.01370
G1 X97.968 Y171.736 E7.07961
G1 X97.968 Y172.184 E7.09168
G1 X95.723 Y169.938 E7.17724
G1 X95.315 Y169.978 E7.18827
G1 X97.968 Y172.632 E7.28936
G1 X97.968 Y173.080 E7.30143
G1 X94.919 Y170.031 E7.41760
G1 X94.570 Y170.129 E7.42738
G1 X97.968 Y173.528 E7.55687
G1 X97.968 Y173.975 E7.56893
G1 X94.253 Y170.260 E7.71048
G1 X93.937 Y170.391 E7.71972
G1 X97.968 Y174.423 E7.87333
G1 X97.968 Y174.871 E7.88540
G1 X93.676 Y170.579 E8.04893
G1 X93.432 Y170.783 E8.05750
G1 X97.968 Y175.319 E8.23033
G1 X97.968 Y175.767 E8.24240
G1 X93.375 Y171.173 E8.41742
G1 X93.375 Y171.621 E8.42949
G1 X97.911 Y176.157 E8.60232
G1 X97.667 Y176.361 E8.61088
G1 X93.375 Y172.069 E8.77442
G1 X93.375 Y172.517 E8.78648
G1 X97.407 Y176.549 E8.94010
G1 X97.090 Y176.680 E8.94934
G1 X93.375 Y172.965 E9.09089
G1 X93.375 Y173.413 E9.10295
G1 X96.773 Y176.811 E9.23244
G1 X96.423 Y176.909 E9.24223
G1 X93.375 Y173.861 E9.35837
G1 X93.375 Y174.308 E9.37044
G1 X96.026 Y176.959 E9.47143
G1 X95.620 Y177.002 E9.48241
G1 X93.375 Y174.756 E9.56797
G1 X93.375 Y175.204 E9.58004
G1 X95.105 Y176.934 E9.64594
G1 X94.508 Y176.786 E9.66250
G1 X93.375 Y175.652 E9.70569
G1 X93.375 Y176.100 E9.71775
G1 X93.503 Y176.228 E9.72264
G1 F2400.000 E4.72264
G92 E0
G1 X98.207 Y143.771 F10500.000
G1 E5.00000 F2400.000
G1 X98.207 Y149.289 E5.14867 F600.000
G1 X97.580 Y149.771 E5.16998
G1 X96.677 Y150.144 E5.19630
G1 X95.709 Y150.272 E5.22261
G1 X94.740 Y150.144 E5.24893
G1 X93.823 Y149.759 E5.27573
G1 X93.210 Y149.289 E5.29654
G1 X93.210 Y143.771 E5.44521
G1 X93.838 Y143.289 E5.46652
G1 X94.740 Y142.915 E5.49284
G1 X95.709 Y142.788 E5.51915
G1 X96.677 Y142.915 E5.54547
G1 X97.580 Y143.289 E5.57179
G1 X98.160 Y143.734 E5.59148
G1 X98.513 Y143.620 F10500.000
G1 X98.513 Y149.440 E5.74827 F600.000
G1 X97.734 Y150.038 E5.77473
G1 X96.757 Y150.442 E5.80322
G1 X95.709 Y150.580 E5.83170
G1 X94.661 Y150.442 E5.86019
G1 X93.684 Y150.038 E5.88868
G1 X93.637 Y150.002 E5.89026
G1 X92.905 Y149.440 E5.91513
G1 X92.905 Y143.620 E6.07192
G1 X93.684 Y143.022 E6.09838
G1 X94.661 Y142.617 E6.12687
G1 X95.709 Y142.479 E6.15535
G1 X96.757 Y142.617 E6.18384
G1 X97.734 Y143.022 E6.21233
G1 X98.466 Y143.583 E6.23716
G1 X98.819 Y143.469 F10500.000
G1 X98.819 Y149.591 E6.40208 F300.000
G1 X97.888 Y150.305 E6.43368
G1 X96.837 Y150.740 E6.46434
G1 X95.709 Y150.889 E6.49499
G1 X94.581 Y150.740 E6.52565
G1 X93.530 Y150.305 E6.55631
G1 X92.599 Y149.591 E6.58791
G1 X92.599 Y143.469 E6.75283
G1 X93.530 Y142.755 E6.78443
G1 X94.581 Y142.320 E6.81508
G1 X95.709 Y142.171 E6.84574
G1 X96.837 Y142.320 E6.87639
G1 X97.888 Y142.755 E6.90705
G1 X98.771 Y143.433 E6.93703
G1 X98.549 Y143.764 F10500.000
G1 X97.877 Y143.772 F10500.000
G1 X98.006 Y143.900 E6.94192 F840.000
G1 X98.006 Y144.348 E6.95399
G1 X96.878 Y143.220 E6.99695
G1 X96.276 Y143.066 E7.01370
G1 X98.006 Y144.796 E7.07961
G1 X98.006 Y145.244 E7.09168
G1 X95.760 Y142.998 E7.17724
G1 X95.352 Y143.038 E7.18827
G1 X98.006 Y145.692 E7.28936
G1 X98.006 Y146.139 E7.30143
G1 X94.957 Y143.090 E7.41760
G1 X94.607 Y143.189 E7.42738
G1 X98.006 Y146.587 E7.55687
G1 X98.006 Y147.035 E7.56893
G1 X94.291 Y143.320 E7.71048
G1 X93.974 Y143.451 E7.71972
G1 X98.006 Y147.483 E7.87333
G1 X98.006 Y147.931 E7.88540
G1 X93.714 Y143.639 E8.04893
G1 X93.470 Y143.843 E8.05750
G1 X98.006 Y148.379 E8.23033
G1 X98.006 Y148.827 E8.24240
G1 X93.412 Y144.233 E8.41742
G1 X93.412 Y144.681 E8.42949
G1 X97.948 Y149.217 E8.60232
G1 X97.704 Y149.421 E8.61088
G1 X93.412 Y145.129 E8.77442
G1 X93.412 Y145.577 E8.78648
G1 X97.444 Y149.609 E8.94010
G1 X97.127 Y149.740 E8.94934
G1 X93.412 Y146.025 E9.09089
G1 X93.412 Y146.472 E9.10295
G1 X96.811 Y149.871 E9.23244
G1 X96.460 Y149.969 E9.24223
G1 X93.412 Y146.920 E9.35837
G1 X93.412 Y147.368 E9.37044
G1 X96.063 Y150.019 E9.47143
G1 X95.658 Y150.062 E9.48241
G1 X93.412 Y147.816 E9.56797
G1 X93.412 Y148.264 E9.58004
G1 X95.142 Y149.994 E9.64594
G1 X94.546 Y149.845 E9.66250
G1 X93.412 Y148.712 E9.70569
