; generated by Slic3r 1.1.7 on 2014-12-07 at 15:26:14

; perimeters extrusion width = 0.40mm
; infill extrusion width = 0.40mm
; solid infill extrusion width = 0.40mm
; top infill extrusion width = 0.40mm

G21 ; set units to millimeters
M107
M190 S110 ; wait for bed temperature to be reached
M104 S240 ; set temperature
G1 Z5 F90 ; lift nozzle
G28 X0 Y0 ;
G1 X110 Y180 F9000 ;
G28 Z0 ;

M109 S240 ; wait for temperature to be reached
G90 ; use absolute coordinates
G92 E0
M82 ; use absolute distances for extrusion
M204 S1500
G1 F2400.000 E-5.00000
G92 E0
G1 Z0.200 F10500.000
G1 X52.583 Y114.418 F10500.000
G1 E5.00000 F2400.000
G1 X55.000 Y113.583 E5.06890 F240.000
G1 X165.000 Y113.583 E8.03240
G1 X166.714 Y113.978 E8.07978
G1 X168.082 Y115.083 E8.12717 F240.000
G1 X168.917 Y117.500 E8.19607
G1 X168.917 Y202.500 E10.48604
G1 X168.522 Y204.214 E10.53343
G1 X167.417 Y205.582 E10.58082
G1 X165.000 Y206.417 E10.64972
G1 X55.000 Y206.417 E13.61321
G1 X53.286 Y206.022 E13.66060
G1 X51.918 Y204.917 E13.70799
G1 X51.083 Y202.500 E13.77689
G1 X51.083 Y117.500 E16.06686
G1 X51.478 Y115.786 E16.11425
G1 X52.545 Y114.464 E16.16002
G1 X52.833 Y114.631 F10500.000
G1 X52.880 Y114.576 E16.16198 F240.000
G1 X55.000 Y113.888 E16.22202
G1 X165.000 Y113.888 E19.18552
G1 X166.641 Y114.283 E19.23099
G1 X167.924 Y115.380 E19.27647 F240.000
G1 X168.612 Y117.500 E19.33651
G1 X168.612 Y202.500 E21.62648
G1 X168.217 Y204.141 E21.67196
G1 X167.120 Y205.424 E21.71743
G1 X165.000 Y206.112 E21.77747
G1 X55.000 Y206.112 E24.74097
G1 X53.359 Y205.717 E24.78645
G1 X52.076 Y204.620 E24.83192
G1 X51.388 Y202.500 E24.89196
G1 X51.388 Y117.500 E27.18193
G1 X51.783 Y115.859 E27.22741
G1 X52.794 Y114.677 E27.26931
G1 X53.076 Y114.853 F10500.000
G1 X53.176 Y114.743 E27.27332 F240.000
G1 X55.000 Y114.194 E27.32463
G1 X165.000 Y114.194 E30.28813
G1 X166.565 Y114.588 E30.33161
G1 X167.757 Y115.676 E30.37509 F240.000
G1 X168.306 Y117.500 E30.42640
G1 X168.306 Y202.500 E32.71638
G1 X167.912 Y204.065 E32.75986
G1 X166.824 Y205.257 E32.80334
G1 X165.000 Y205.806 E32.85465
G1 X55.000 Y205.806 E35.81815
G1 X53.435 Y205.412 E35.86162
G1 X52.243 Y204.324 E35.90510
G1 X51.694 Y202.500 E35.95641
G1 X51.694 Y117.500 E38.24639
G1 X52.088 Y115.935 E38.28987
G1 X53.035 Y114.897 E38.32771
G1 F2400.000 E33.32771
G92 E0
G1 X149.248 Y192.252 F10500.000
G1 E5.00000 F2400.000
G1 X164.248 Y192.252 E5.40411 F600.000
G1 X164.248 Y201.748 E5.65997
G1 X55.752 Y201.748 E8.58298
G1 X55.752 Y192.252 E8.83883
G1 X70.752 Y192.252 E9.24295
G1 X70.752 Y187.748 E9.36426
G1 X55.752 Y187.748 E9.76837
G1 X55.752 Y172.252 E10.18588
G1 X70.752 Y172.252 E10.58999
G1 X70.752 Y167.748 E10.71131
G1 X55.752 Y167.748 E11.11542
G1 X55.752 Y152.252 E11.53292
G1 X70.752 Y152.252 E11.93704
G1 X70.752 Y147.748 E12.05835
G1 X55.752 Y147.748 E12.46246
G1 X55.752 Y132.252 E12.87997
G1 X70.752 Y132.252 E13.28408
G1 X70.752 Y127.748 E13.40539
G1 X55.752 Y127.748 E13.80951
G1 X55.752 Y118.252 E14.06537
G1 X164.248 Y118.252 E16.98837
G1 X164.248 Y127.748 E17.24423
G1 X149.248 Y127.748 E17.64834
G1 X149.248 Y132.252 E17.76966
G1 X164.248 Y132.252 E18.17377
G1 X164.248 Y147.748 E18.59127
G1 X149.248 Y147.748 E18.99539
G1 X149.248 Y152.252 E19.11670
G1 X164.248 Y152.252 E19.52081
G1 X164.248 Y167.748 E19.93832
G1 X149.248 Y167.748 E20.34243
G1 X149.248 Y172.252 E20.46374
G1 X164.248 Y172.252 E20.86786
G1 X164.248 Y187.748 E21.28536
G1 X149.248 Y187.748 E21.68947
G1 X149.248 Y192.192 E21.80917
G1 X149.554 Y191.946 F10500.000
G1 X164.554 Y191.946 E22.21329 F600.000
G1 X164.554 Y202.054 E22.48562
G1 X55.446 Y202.054 E25.42510
G1 X55.446 Y191.946 E25.69743
G1 X70.446 Y191.946 E26.10154
G1 X70.446 Y188.054 E26.20638
G1 X55.446 Y188.054 E26.61050
G1 X55.446 Y171.946 E27.04447
G1 X70.446 Y171.946 E27.44859
G1 X70.446 Y168.054 E27.55343
G1 X55.446 Y168.054 E27.95754
G1 X55.446 Y151.946 E28.39152
G1 X70.446 Y151.946 E28.79563
G1 X70.446 Y148.054 E28.90047
G1 X55.446 Y148.054 E29.30459
G1 X55.446 Y131.946 E29.73856
G1 X70.446 Y131.946 E30.14268
G1 X70.446 Y128.054 E30.24752
G1 X55.446 Y128.054 E30.65163
G1 X55.446 Y117.946 E30.92396
G1 X164.554 Y117.946 E33.86344
G1 X164.554 Y128.054 E34.13577
G1 X149.554 Y128.054 E34.53989
G1 X149.554 Y131.946 E34.64473
G1 X164.554 Y131.946 E35.04884
G1 X164.554 Y148.054 E35.48282
G1 X149.554 Y148.054 E35.88693
G1 X149.554 Y151.946 E35.99177
G1 X164.554 Y151.946 E36.39588
G1 X164.554 Y168.054 E36.82986
G1 X149.554 Y168.054 E37.23397
G1 X149.554 Y171.946 E37.33882
G1 X164.554 Y171.946 E37.74293
G1 X164.554 Y188.054 E38.17691
G1 X149.554 Y188.054 E38.58102
G1 X149.554 Y191.886 E38.68424
G1 X149.860 Y191.640 F10500.000
G1 X164.860 Y191.640 E39.08836 F300.000
G1 X164.860 Y202.360 E39.37716
G1 X55.140 Y202.360 E42.33312
G1 X55.140 Y191.640 E42.62192
G1 X70.140 Y191.640 E43.02604
G1 X70.140 Y188.360 E43.11440
G1 X55.140 Y188.360 E43.51852
G1 X55.140 Y171.640 E43.96897
G1 X70.140 Y171.640 E44.37308
G1 X70.140 Y168.360 E44.46145
G1 X55.140 Y168.360 E44.86556
G1 X55.140 Y151.640 E45.31601
G1 X70.140 Y151.640 E45.72013
G1 X70.140 Y148.360 E45.80849
G1 X55.140 Y148.360 E46.21260
G1 X55.140 Y131.640 E46.66306
G1 X70.140 Y131.640 E47.06717
G1 X70.140 Y128.360 E47.15554
G1 X55.140 Y128.360 E47.55965
G1 X55.140 Y117.640 E47.84846
G1 X164.860 Y117.640 E50.80441
G1 X164.860 Y128.360 E51.09322
G1 X149.860 Y128.360 E51.49733
G1 X149.860 Y131.640 E51.58570
G1 X164.860 Y131.640 E51.98981
G1 X164.860 Y148.360 E52.44026
G1 X149.860 Y148.360 E52.84437
G1 X149.860 Y151.640 E52.93274
G1 X164.860 Y151.640 E53.33685
G1 X164.860 Y168.360 E53.78730
G1 X149.860 Y168.360 E54.19142
G1 X149.860 Y171.640 E54.27978
G1 X164.860 Y171.640 E54.68390
G1 X164.860 Y188.360 E55.13435
G1 X149.860 Y188.360 E55.53846
G1 X149.860 Y191.580 E55.62521
G1 X149.860 Y192.040 F10500.000
G1 X149.170 Y192.453 F10500.000
G1 X158.264 Y201.547 E55.97168 F840.000
G1 X158.697 Y201.547 E55.98336
G1 X149.603 Y192.453 E56.32983
G1 X150.037 Y192.453 E56.34150
G1 X159.130 Y201.547 E56.68797
G1 X159.564 Y201.547 E56.69965
G1 X150.470 Y192.453 E57.04612
G1 X150.903 Y192.453 E57.05780
G1 X159.997 Y201.547 E57.40427
G1 X160.431 Y201.547 E57.41594
G1 X151.337 Y192.453 E57.76241
G1 X151.770 Y192.453 E57.77409
G1 X160.864 Y201.547 E58.12056
G1 X161.297 Y201.547 E58.13223
G1 X152.204 Y192.453 E58.47870
G1 X152.637 Y192.453 E58.49038
G1 X161.731 Y201.547 E58.83685
G1 X162.164 Y201.547 E58.84853
G1 X153.070 Y192.453 E59.19500
G1 X153.504 Y192.453 E59.20667
G1 X162.597 Y201.547 E59.55314
G1 X163.031 Y201.547 E59.56482
G1 X153.937 Y192.453 E59.91129
G1 X154.370 Y192.453 E59.92296
G1 X163.464 Y201.547 E60.26943
G1 X163.897 Y201.547 E60.28111
G1 X154.804 Y192.453 E60.62758
G1 X155.237 Y192.453 E60.63925
G1 X164.047 Y201.263 E60.97491
G1 X164.047 Y200.830 E60.98659
G1 X155.670 Y192.453 E61.30573
G1 X156.104 Y192.453 E61.31741
G1 X164.047 Y200.396 E61.62004
G1 X164.047 Y199.963 E61.63172
G1 X156.537 Y192.453 E61.91784
G1 X156.970 Y192.453 E61.92952
G1 X164.047 Y199.530 E62.19913
G1 X164.047 Y199.096 E62.21081
G1 X157.404 Y192.453 E62.46391
G1 X157.837 Y192.453 E62.47559
G1 X164.047 Y198.663 E62.71218
G1 X164.047 Y198.230 E62.72385
G1 X158.270 Y192.453 E62.94394
G1 X158.704 Y192.453 E62.95561
G1 X164.047 Y197.796 E63.15918
G1 X164.047 Y197.363 E63.17086
G1 X159.137 Y192.453 E63.35792
G1 X159.570 Y192.453 E63.36959
G1 X164.047 Y196.930 E63.54014
G1 X164.047 Y196.496 E63.55182
G1 X160.004 Y192.453 E63.70586
G1 X160.437 Y192.453 E63.71753
G1 X164.047 Y196.063 E63.85506
G1 X164.047 Y195.629 E63.86673
G1 X160.871 Y192.453 E63.98775
G1 X161.304 Y192.453 E63.99943
G1 X164.047 Y195.196 E64.10393
G1 X164.047 Y194.763 E64.11561
G1 X161.737 Y192.453 E64.20361
G1 X162.171 Y192.453 E64.21528
G1 X164.047 Y194.329 E64.28677
G1 X164.047 Y193.896 E64.29844
G1 X162.604 Y192.453 E64.35342
G1 X163.037 Y192.453 E64.36509
G1 X164.047 Y193.463 E64.40356
G1 X164.047 Y193.029 E64.41523
G1 X163.471 Y192.453 E64.43718
G1 X163.904 Y192.453 E64.44886
G1 X164.047 Y192.596 E64.45430
G1 F2400.000 E59.45430
G92 E0
G1 X163.331 Y187.547 F10500.000
G1 E5.00000 F2400.000
G1 X94.237 Y118.453 E7.63248 F840.000
G1 X93.804 Y118.453 E7.64416
G1 X162.898 Y187.547 E10.27664
G1 X162.464 Y187.547 E10.28831
G1 X93.371 Y118.453 E12.92079
G1 X92.937 Y118.453 E12.93247
G1 X162.031 Y187.547 E15.56495
G1 X161.598 Y187.547 E15.57662
G1 X92.504 Y118.453 E18.20911
G1 X92.071 Y118.453 E18.22078
G1 X161.164 Y187.547 E20.85326
G1 X160.731 Y187.547 E20.86494
G1 X91.637 Y118.453 E23.49742
G1 X91.204 Y118.453 E23.50909
G1 X160.298 Y187.547 E26.14157
G1 X159.864 Y187.547 E26.15325
G1 X90.771 Y118.453 E28.78573
G1 X90.337 Y118.453 E28.79740
G1 X159.431 Y187.547 E31.42989
G1 X158.998 Y187.547 E31.44156
G1 X89.904 Y118.453 E34.07404
G1 X89.471 Y118.453 E34.08572
G1 X158.564 Y187.547 E36.71820
G1 X158.131 Y187.547 E36.72987
G1 X89.037 Y118.453 E39.36235
G1 X88.604 Y118.453 E39.37403
G1 X157.698 Y187.547 E42.00651
G1 X157.264 Y187.547 E42.01818
G1 X88.171 Y118.453 E44.65067
G1 X87.737 Y118.453 E44.66234
G1 X156.831 Y187.547 E47.29482
G1 X156.398 Y187.547 E47.30650
G1 X87.304 Y118.453 E49.93898
G1 X86.871 Y118.453 E49.95065
G1 X155.964 Y187.547 E52.58313
G1 X155.531 Y187.547 E52.59481
G1 X86.437 Y118.453 E55.22729
G1 X86.004 Y118.453 E55.23896
G1 X155.098 Y187.547 E57.87145
G1 X154.664 Y187.547 E57.88312
G1 X85.570 Y118.453 E60.51560
G1 X85.137 Y118.453 E60.52728
G1 X154.231 Y187.547 E63.15976
G1 X153.797 Y187.547 E63.17143
G1 X84.704 Y118.453 E65.80391
G1 X84.270 Y118.453 E65.81559
G1 X153.364 Y187.547 E68.44807
G1 X152.931 Y187.547 E68.45974
G1 X83.837 Y118.453 E71.09223
G1 X83.404 Y118.453 E71.10390
G1 X152.497 Y187.547 E73.73638
G1 X152.064 Y187.547 E73.74806
G1 X82.970 Y118.453 E76.38054
G1 X82.537 Y118.453 E76.39221
G1 X151.631 Y187.547 E79.02469
G1 X151.197 Y187.547 E79.03637
G1 X82.104 Y118.453 E81.66885
G1 X81.670 Y118.453 E81.68052
G1 X150.764 Y187.547 E84.31301
G1 X150.331 Y187.547 E84.32468
G1 X81.237 Y118.453 E86.95716
G1 X80.804 Y118.453 E86.96884
G1 X149.897 Y187.547 E89.60132
G1 X149.464 Y187.547 E89.61299
G1 X80.370 Y118.453 E92.24547
G1 X79.937 Y118.453 E92.25715
G1 X149.047 Y187.563 E94.89025
G1 X149.047 Y187.996 E94.90192
G1 X79.504 Y118.453 E97.55153
G1 X79.070 Y118.453 E97.56321
G1 X149.047 Y188.430 E100.22933
G1 X149.047 Y188.863 E100.24100
G1 X78.637 Y118.453 E102.92363
G1 X78.204 Y118.453 E102.93531
G1 X149.047 Y189.296 E105.63445
G1 X149.047 Y189.730 E105.64613
G1 X77.770 Y118.453 E108.36178
G1 X77.337 Y118.453 E108.37345
G1 X149.047 Y190.163 E111.10562
G1 X149.047 Y190.597 E111.11729
G1 X76.903 Y118.453 E113.86597
G1 X76.470 Y118.453 E113.87764
G1 X149.047 Y191.030 E116.64283
G1 X149.047 Y191.463 E116.65450
G1 X76.037 Y118.453 E119.43620
G1 X75.603 Y118.453 E119.44787
G1 X149.047 Y191.897 E122.24608
G1 X149.047 Y192.330 E122.25775
G1 X75.170 Y118.453 E125.07247
G1 X74.737 Y118.453 E125.08415
G1 X157.830 Y201.547 E128.25003
G1 X157.397 Y201.547 E128.26170
G1 X74.303 Y118.453 E131.42759
G1 X73.870 Y118.453 E131.43926
G1 X156.964 Y201.547 E134.60515
G1 X156.530 Y201.547 E134.61682
G1 X73.437 Y118.453 E137.78270
G1 X73.003 Y118.453 E137.79438
G1 X156.097 Y201.547 E140.96026
G1 X155.664 Y201.547 E140.97194
G1 X72.570 Y118.453 E144.13782
G1 X72.137 Y118.453 E144.14950
G1 X155.230 Y201.547 E147.31538
G1 X154.797 Y201.547 E147.32705
G1 X71.703 Y118.453 E150.49294
G1 X71.270 Y118.453 E150.50461
G1 X154.364 Y201.547 E153.67050
G1 X153.930 Y201.547 E153.68217
G1 X70.837 Y118.453 E156.84806
G1 X70.403 Y118.453 E156.85973
G1 X153.497 Y201.547 E160.02561
G1 X153.064 Y201.547 E160.03729
G1 X69.970 Y118.453 E163.20317
G1 X69.537 Y118.453 E163.21485
G1 X152.630 Y201.547 E166.38073
G1 X152.197 Y201.547 E166.39241
G1 X69.103 Y118.453 E169.55829
G1 X68.670 Y118.453 E169.56996
G1 X151.764 Y201.547 E172.73585
G1 X151.330 Y201.547 E172.74752
G1 X68.236 Y118.453 E175.91341
G1 X67.803 Y118.453 E175.92508
G1 X150.897 Y201.547 E179.09096
G1 X150.463 Y201.547 E179.10264
G1 X67.370 Y118.453 E182.26852
G1 X66.936 Y118.453 E182.28020
G1 X150.030 Y201.547 E185.44608
G1 X149.597 Y201.547 E185.45776
G1 X66.503 Y118.453 E188.62364
G1 X66.070 Y118.453 E188.63531
G1 X149.163 Y201.547 E191.80120
G1 X148.730 Y201.547 E191.81287
G1 X65.636 Y118.453 E194.97876
G1 X65.203 Y118.453 E194.99043
G1 X148.297 Y201.547 E198.15631
G1 X147.863 Y201.547 E198.16799
G1 X64.770 Y118.453 E201.33387
G1 X64.336 Y118.453 E201.34555
G1 X147.430 Y201.547 E204.51143
G1 X146.997 Y201.547 E204.52311
G1 X63.903 Y118.453 E207.68899
G1 X63.470 Y118.453 E207.70066
G1 X146.563 Y201.547 E210.86655
G1 X146.130 Y201.547 E210.87822
G1 X63.036 Y118.453 E214.04411
G1 X62.603 Y118.453 E214.05578
G1 X145.697 Y201.547 E217.22166
G1 X145.263 Y201.547 E217.23334
G1 X62.170 Y118.453 E220.39922
G1 X61.736 Y118.453 E220.41090
G1 X144.830 Y201.547 E223.57678
G1 X144.397 Y201.547 E223.58846
G1 X70.953 Y128.103 E226.38666
G1 X70.953 Y128.537 E226.39834
G1 X143.963 Y201.547 E229.18003
G1 X143.530 Y201.547 E229.19171
G1 X70.953 Y128.970 E231.95689
G1 X70.953 Y129.403 E231.96857
G1 X143.097 Y201.547 E234.71724
G1 X142.663 Y201.547 E234.72892
G1 X70.953 Y129.837 E237.46108
G1 X70.953 Y130.270 E237.47275
G1 X142.230 Y201.547 E240.18841
G1 X141.796 Y201.547 E240.20008
G1 X70.953 Y130.704 E242.89922
G1 X70.953 Y131.137 E242.91090
G1 X141.363 Y201.547 E245.59353
G1 X140.930 Y201.547 E245.60521
G1 X70.953 Y131.570 E248.27133
G1 X70.953 Y132.004 E248.28300
G1 X140.496 Y201.547 E250.93261
G1 X140.063 Y201.547 E250.94429
G1 X70.953 Y132.437 E253.57738
G1 X70.536 Y132.453 E253.58863
G1 X139.630 Y201.547 E256.22111
G1 X139.196 Y201.547 E256.23279
G1 X70.103 Y132.453 E258.86527
G1 X69.669 Y132.453 E258.87694
G1 X138.763 Y201.547 E261.50942
G1 X138.330 Y201.547 E261.52110
G1 X69.236 Y132.453 E264.15358
G1 X68.803 Y132.453 E264.16526
G1 X137.896 Y201.547 E266.79774
G1 X137.463 Y201.547 E266.80941
G1 X68.369 Y132.453 E269.44189
G1 X67.936 Y132.453 E269.45357
G1 X137.030 Y201.547 E272.08605
G1 X136.596 Y201.547 E272.09772
G1 X67.503 Y132.453 E274.73021
G1 X67.069 Y132.453 E274.74188
G1 X136.163 Y201.547 E277.37436
G1 X135.730 Y201.547 E277.38604
G1 X66.636 Y132.453 E280.01852
G1 X66.203 Y132.453 E280.03019
G1 X135.296 Y201.547 E282.66267
G1 X134.863 Y201.547 E282.67435
G1 X65.769 Y132.453 E285.30683
G1 X65.336 Y132.453 E285.31850
G1 X134.430 Y201.547 E287.95099
G1 X133.996 Y201.547 E287.96266
G1 X64.902 Y132.453 E290.59514
G1 X64.469 Y132.453 E290.60682
G1 X133.563 Y201.547 E293.23930
G1 X133.129 Y201.547 E293.25097
G1 X64.036 Y132.453 E295.88345
G1 X63.602 Y132.453 E295.89513
G1 X132.696 Y201.547 E298.52761
G1 X132.263 Y201.547 E298.53928
G1 X63.169 Y132.453 E301.17177
G1 X62.736 Y132.453 E301.18344
G1 X131.829 Y201.547 E303.81592
G1 X131.396 Y201.547 E303.82760
G1 X62.302 Y132.453 E306.46008
G1 X61.869 Y132.453 E306.47175
G1 X130.963 Y201.547 E309.10423
G1 X130.529 Y201.547 E309.11591
G1 X61.436 Y132.453 E311.74839
G1 X61.002 Y132.453 E311.76006
G1 X130.096 Y201.547 E314.39255
G1 X129.663 Y201.547 E314.40422
G1 X60.569 Y132.453 E317.03670
G1 X60.136 Y132.453 E317.04838
G1 X129.229 Y201.547 E319.68086
G1 X128.796 Y201.547 E319.69253
G1 X59.702 Y132.453 E322.32501
G1 X59.269 Y132.453 E322.33669
G1 X128.363 Y201.547 E324.96917
G1 X127.929 Y201.547 E324.98084
G1 X58.836 Y132.453 E327.61333
G1 X58.402 Y132.453 E327.62500
G1 X127.496 Y201.547 E330.25748
G1 X127.063 Y201.547 E330.26916
G1 X57.969 Y132.453 E332.90164
G1 X57.536 Y132.453 E332.91331
G1 X126.629 Y201.547 E335.54579
G1 X126.196 Y201.547 E335.55747
G1 X57.102 Y132.453 E338.18995
G1 X56.669 Y132.453 E338.20162
G1 X125.763 Y201.547 E340.83411
