; generated by Slic3r 1.1.7 on 2014-12-08 at 03:32:53

; perimeters extrusion width = 0.40mm
; infill extrusion width = 0.40mm
; solid infill extrusion width = 0.40mm
; top infill extrusion width = 0.40mm

G21 ; set units to millimeters
M107
M190 S110 ; wait for bed temperature to be reached
M104 S240 ; set temperature
G1 Z5 F90 ; lift nozzle
G28 X0 Y0 ;
G1 X110 Y180 F9000 ;
G28 Z0 ;

M109 S240 ; wait for temperature to be reached
G90 ; use absolute coordinates
G92 E0
M82 ; use absolute distances for extrusion
M204 S1500
G1 F2400.000 E-5.00000
G92 E0
G1 Z0.200 F10500.000
G1 X54.083 Y125.918 F10500.000
G1 E5.00000 F2400.000
G1 X56.500 Y125.083 E5.06890 F240.000
G1 X163.500 Y125.083 E7.95157
G1 X165.214 Y125.478 E7.99896
G1 X166.582 Y126.583 E8.04635 F240.000
G1 X167.417 Y129.000 E8.11525
G1 X167.417 Y191.000 E9.78558
G1 X167.022 Y192.714 E9.83297
G1 X165.917 Y194.082 E9.88035
G1 X163.500 Y194.917 E9.94925
G1 X56.500 Y194.917 E12.83193
G1 X54.786 Y194.522 E12.87931
G1 X53.418 Y193.417 E12.92670
G1 X52.583 Y191.000 E12.99560
G1 X52.583 Y129.000 E14.66593
G1 X52.978 Y127.286 E14.71332
G1 X54.045 Y125.964 E14.75909
G1 X54.333 Y126.131 F10500.000
G1 X54.380 Y126.076 E14.76106 F240.000
G1 X56.500 Y125.388 E14.82109
G1 X163.500 Y125.388 E17.70377
G1 X165.141 Y125.783 E17.74924
G1 X166.424 Y126.880 E17.79472 F240.000
G1 X167.112 Y129.000 E17.85476
G1 X167.112 Y191.000 E19.52509
G1 X166.717 Y192.641 E19.57057
G1 X165.620 Y193.924 E19.61604
G1 X163.500 Y194.612 E19.67608
G1 X56.500 Y194.612 E22.55876
G1 X54.859 Y194.217 E22.60423
G1 X53.576 Y193.120 E22.64971
G1 X52.888 Y191.000 E22.70975
G1 X52.888 Y129.000 E24.38008
G1 X53.283 Y127.359 E24.42556
G1 X54.294 Y126.177 E24.46745
G1 X54.576 Y126.353 F10500.000
G1 X54.676 Y126.243 E24.47147 F240.000
G1 X56.500 Y125.694 E24.52278
G1 X163.500 Y125.694 E27.40546
G1 X165.065 Y126.088 E27.44894
G1 X166.257 Y127.176 E27.49242 F240.000
G1 X166.806 Y129.000 E27.54373
G1 X166.806 Y191.000 E29.21406
G1 X166.412 Y192.565 E29.25754
G1 X165.324 Y193.757 E29.30102
G1 X163.500 Y194.306 E29.35233
G1 X56.500 Y194.306 E32.23501
G1 X54.935 Y193.912 E32.27849
G1 X53.743 Y192.824 E32.32197
G1 X53.194 Y191.000 E32.37328
G1 X53.194 Y129.000 E34.04361
G1 X53.588 Y127.435 E34.08709
G1 X54.535 Y126.397 E34.12494
G1 F2400.000 E29.12494
G92 E0
G1 X150.220 Y184.252 F10500.000
G1 E5.00000 F2400.000
G1 X141.580 Y184.252 E5.23278 F600.000
G1 X143.466 Y180.984 E5.33441
G1 X148.334 Y180.984 E5.46555
G1 X150.190 Y184.200 E5.56557
G1 X149.691 Y183.946 F10500.000
G1 X142.109 Y183.946 E5.76981 F600.000
G1 X143.643 Y181.290 E5.85243
G1 X148.157 Y181.290 E5.97406
G1 X149.661 Y183.894 E6.05505
G1 X149.161 Y183.640 F10500.000
G1 X142.639 Y183.640 E6.23076 F300.000
G1 X143.819 Y181.596 E6.29435
G1 X147.981 Y181.596 E6.40647
G1 X149.131 Y183.588 E6.46844
G1 X149.230 Y184.034 F10500.000
G1 X135.320 Y184.252 F10500.000
G1 X126.680 Y184.252 E6.70122 F600.000
G1 X128.566 Y180.984 E6.80285
G1 X133.434 Y180.984 E6.93399
G1 X135.290 Y184.200 E7.03401
G1 X134.791 Y183.946 F10500.000
G1 X127.209 Y183.946 E7.23825 F600.000
G1 X128.743 Y181.290 E7.32087
G1 X133.257 Y181.290 E7.44250
G1 X134.761 Y183.894 E7.52349
G1 X134.261 Y183.640 F10500.000
G1 X127.739 Y183.640 E7.69920 F300.000
G1 X128.919 Y181.596 E7.76279
G1 X133.081 Y181.596 E7.87491
G1 X134.231 Y183.588 E7.93688
G1 X134.330 Y184.034 F10500.000
G1 X120.420 Y184.252 F10500.000
G1 X111.780 Y184.252 E8.16966 F600.000
G1 X113.666 Y180.984 E8.27129
G1 X118.534 Y180.984 E8.40243
G1 X120.390 Y184.200 E8.50245
G1 X119.891 Y183.946 F10500.000
G1 X112.309 Y183.946 E8.70669 F600.000
G1 X113.843 Y181.290 E8.78931
G1 X118.357 Y181.290 E8.91094
G1 X119.861 Y183.894 E8.99193
G1 X119.361 Y183.640 F10500.000
G1 X112.839 Y183.640 E9.16764 F300.000
G1 X114.019 Y181.596 E9.23123
G1 X118.181 Y181.596 E9.34335
G1 X119.331 Y183.588 E9.40532
G1 X119.430 Y184.034 F10500.000
G1 X105.520 Y184.252 F10500.000
G1 X96.880 Y184.252 E9.63810 F600.000
G1 X98.766 Y180.984 E9.73973
G1 X103.634 Y180.984 E9.87087
G1 X105.490 Y184.200 E9.97089
G1 X104.991 Y183.946 F10500.000
G1 X97.409 Y183.946 E10.17513 F600.000
G1 X98.943 Y181.290 E10.25775
G1 X103.457 Y181.290 E10.37938
G1 X104.961 Y183.894 E10.46037
G1 X104.461 Y183.640 F10500.000
G1 X97.939 Y183.640 E10.63608 F300.000
G1 X99.119 Y181.596 E10.69967
G1 X103.281 Y181.596 E10.81179
G1 X104.431 Y183.588 E10.87376
G1 X104.530 Y184.034 F10500.000
G1 X90.620 Y184.252 F10500.000
G1 X81.980 Y184.252 E11.10654 F600.000
G1 X83.866 Y180.984 E11.20817
G1 X88.734 Y180.984 E11.33931
G1 X90.590 Y184.200 E11.43933
G1 X90.091 Y183.946 F10500.000
G1 X82.509 Y183.946 E11.64357 F600.000
G1 X84.043 Y181.290 E11.72619
G1 X88.557 Y181.290 E11.84782
G1 X90.061 Y183.894 E11.92881
G1 X89.561 Y183.640 F10500.000
G1 X83.039 Y183.640 E12.10452 F300.000
G1 X84.219 Y181.596 E12.16811
G1 X88.381 Y181.596 E12.28023
G1 X89.531 Y183.588 E12.34220
G1 X89.630 Y184.034 F10500.000
G1 F2400.000 E7.34220
G92 E0
G1 X80.752 Y154.752 F10500.000
G1 E5.00000 F2400.000
G1 X67.248 Y154.752 E5.36378 F600.000
G1 X67.248 Y138.248 E5.80839
G1 X80.752 Y138.248 E6.17217
G1 X80.752 Y154.692 E6.61516
G1 X80.446 Y154.446 F10500.000
G1 X67.554 Y154.446 E6.96247 F600.000
G1 X67.554 Y138.554 E7.39060
G1 X80.446 Y138.554 E7.73791
G1 X80.446 Y154.386 E8.16442
G1 X80.140 Y154.140 F10500.000
G1 X67.860 Y154.140 E8.49526 F300.000
G1 X67.860 Y138.860 E8.90692
G1 X80.140 Y138.860 E9.23775
G1 X80.140 Y154.080 E9.64779
G1 X80.140 Y154.540 F10500.000
G1 X81.481 Y158.284 F10500.000
G1 X81.172 Y157.748 E9.66446 F600.000
G1 X91.428 Y157.748 E9.94079
G1 X91.119 Y158.284 E9.95746
G1 X96.381 Y158.284 E10.09922
G1 X96.072 Y157.748 E10.11589
G1 X106.328 Y157.748 E10.39222
G1 X106.019 Y158.284 E10.40890
G1 X111.281 Y158.284 E10.55066
G1 X110.972 Y157.748 E10.56733
G1 X121.228 Y157.748 E10.84366
G1 X120.919 Y158.284 E10.86033
G1 X126.181 Y158.284 E11.00209
G1 X125.872 Y157.748 E11.01876
G1 X136.128 Y157.748 E11.29509
G1 X135.819 Y158.284 E11.31176
G1 X141.081 Y158.284 E11.45352
G1 X140.772 Y157.748 E11.47019
G1 X151.028 Y157.748 E11.74652
G1 X150.719 Y158.284 E11.76319
G1 X155.752 Y158.284 E11.89877
G1 X155.752 Y166.716 E12.12592
G1 X150.966 Y166.716 E12.25484
G1 X148.409 Y162.286 E12.39264
G1 X148.334 Y162.416 E12.39667
G1 X143.416 Y162.416 E12.52915
G1 X140.934 Y166.716 E12.66292
G1 X136.066 Y166.716 E12.79406
G1 X133.509 Y162.286 E12.93186
G1 X133.434 Y162.416 E12.93589
G1 X128.516 Y162.416 E13.06837
G1 X126.034 Y166.716 E13.20213
G1 X121.166 Y166.716 E13.33327
G1 X118.609 Y162.286 E13.47107
G1 X118.534 Y162.416 E13.47510
G1 X113.616 Y162.416 E13.60758
G1 X111.134 Y166.716 E13.74135
G1 X106.266 Y166.716 E13.87249
G1 X103.709 Y162.286 E14.01029
G1 X103.634 Y162.416 E14.01432
G1 X98.716 Y162.416 E14.14680
G1 X96.234 Y166.716 E14.28057
G1 X91.366 Y166.716 E14.41171
G1 X88.809 Y162.286 E14.54951
G1 X88.734 Y162.416 E14.55354
G1 X83.816 Y162.416 E14.68602
G1 X81.334 Y166.716 E14.81978
G1 X76.466 Y166.716 E14.95093
G1 X73.909 Y162.286 E15.08873
G1 X73.834 Y162.416 E15.09276
G1 X68.916 Y162.416 E15.22524
G1 X66.434 Y166.716 E15.35900
G1 X64.248 Y166.716 E15.41788
G1 X64.248 Y158.284 E15.64502
G1 X66.581 Y158.284 E15.70786
G1 X66.272 Y157.748 E15.72453
G1 X76.528 Y157.748 E16.00086
G1 X76.219 Y158.284 E16.01753
G1 X81.421 Y158.284 E16.15768
G1 F2400.000 E11.15768
G92 E0
G1 X148.885 Y162.500 F10500.000
G1 E5.00000 F2400.000
G1 X151.143 Y158.590 E5.12163 F600.000
G1 X155.446 Y158.590 E5.23756
G1 X155.446 Y166.410 E5.44823
G1 X151.143 Y166.410 E5.56416
G1 X148.915 Y162.552 E5.68417
G1 X149.238 Y162.500 F10500.000
G1 X151.319 Y158.896 E5.79629 F300.000
G1 X155.140 Y158.896 E5.89923
G1 X155.140 Y166.104 E6.09342
G1 X151.319 Y166.104 E6.19636
G1 X149.268 Y162.552 E6.30686
G1 X148.932 Y162.243 F10500.000
G1 X148.157 Y162.110 F10500.000
G1 X143.643 Y162.110 E6.42849 F600.000
G1 X141.301 Y158.054 E6.55466
G1 X150.499 Y158.054 E6.80245
G1 X148.187 Y162.058 E6.92700
G1 X149.969 Y158.360 F10500.000
G1 X147.981 Y161.804 E7.03414 F300.000
G1 X143.819 Y161.804 E7.14626
G1 X141.831 Y158.360 E7.25340
G1 X149.909 Y158.360 E7.47104
G1 X150.345 Y158.497 F10500.000
G1 F2400.000 E2.47104
G92 E0
G1 X143.015 Y162.500 F10500.000
G1 E5.00000 F2400.000
G1 X140.757 Y166.410 E5.12163 F600.000
G1 X136.243 Y166.410 E5.24326
G1 X133.985 Y162.500 E5.36489
G1 X136.243 Y158.590 E5.48652
G1 X140.757 Y158.590 E5.60815
G1 X142.985 Y162.448 E5.72816
G1 F2400.000 E0.72816
G92 E0
G1 X134.338 Y162.500 F10500.000
G1 E5.00000 F2400.000
G1 X136.419 Y158.896 E5.11212 F300.000
G1 X140.581 Y158.896 E5.22424
G1 X142.662 Y162.500 E5.33636
G1 X140.581 Y166.104 E5.44847
G1 X136.419 Y166.104 E5.56059
G1 X134.368 Y162.552 E5.67110
G1 X134.032 Y162.243 F10500.000
G1 X133.257 Y162.110 F10500.000
G1 X128.743 Y162.110 E5.79273 F600.000
G1 X126.401 Y158.054 E5.91889
G1 X135.599 Y158.054 E6.16669
G1 X133.287 Y162.058 E6.29123
G1 X135.069 Y158.360 F10500.000
G1 X133.081 Y161.804 E6.39838 F300.000
G1 X128.919 Y161.804 E6.51049
G1 X126.931 Y158.360 E6.61764
G1 X135.009 Y158.360 E6.83528
G1 X135.445 Y158.497 F10500.000
G1 F2400.000 E1.83528
G92 E0
G1 X128.115 Y162.500 F10500.000
G1 E5.00000 F2400.000
G1 X125.857 Y166.410 E5.12163 F600.000
G1 X121.343 Y166.410 E5.24326
G1 X119.085 Y162.500 E5.36489
G1 X121.343 Y158.590 E5.48652
G1 X125.857 Y158.590 E5.60815
G1 X128.085 Y162.448 E5.72816
G1 F2400.000 E0.72816
G92 E0
G1 X119.438 Y162.500 F10500.000
G1 E5.00000 F2400.000
G1 X121.519 Y158.896 E5.11212 F300.000
G1 X125.681 Y158.896 E5.22424
G1 X127.762 Y162.500 E5.33636
G1 X125.681 Y166.104 E5.44847
G1 X121.519 Y166.104 E5.56059
G1 X119.468 Y162.552 E5.67110
G1 X119.132 Y162.243 F10500.000
G1 X118.357 Y162.110 F10500.000
G1 X113.843 Y162.110 E5.79273 F600.000
G1 X111.501 Y158.054 E5.91889
G1 X120.699 Y158.054 E6.16668
G1 X118.387 Y162.058 E6.29123
G1 X118.181 Y161.804 F10500.000
G1 X114.019 Y161.804 E6.40335 F300.000
G1 X112.031 Y158.360 E6.51049
G1 X120.169 Y158.360 E6.72975
G1 X118.211 Y161.752 E6.83528
G1 X118.111 Y162.198 F10500.000
G1 X113.215 Y162.500 F10500.000
G1 X110.957 Y166.410 E6.95691 F600.000
G1 X106.443 Y166.410 E7.07854
G1 X104.185 Y162.500 E7.20017
G1 X106.443 Y158.590 E7.32180
G1 X110.957 Y158.590 E7.44343
G1 X113.185 Y162.448 E7.56344
G1 F2400.000 E2.56344
G92 E0
G1 X104.538 Y162.500 F10500.000
G1 E5.00000 F2400.000
G1 X106.619 Y158.896 E5.11212 F300.000
G1 X110.781 Y158.896 E5.22424
G1 X112.862 Y162.500 E5.33636
G1 X110.781 Y166.104 E5.44847
G1 X106.619 Y166.104 E5.56059
G1 X104.568 Y162.552 E5.67110
G1 X104.232 Y162.243 F10500.000
G1 X103.457 Y162.110 F10500.000
G1 X98.943 Y162.110 E5.79273 F600.000
G1 X96.601 Y158.054 E5.91889
G1 X105.799 Y158.054 E6.16669
G1 X103.487 Y162.058 E6.29123
G1 X103.281 Y161.804 F10500.000
G1 X99.119 Y161.804 E6.40335 F300.000
G1 X97.131 Y158.360 E6.51049
G1 X105.269 Y158.360 E6.72975
G1 X103.311 Y161.752 E6.83528
G1 X103.211 Y162.198 F10500.000
G1 X98.315 Y162.500 F10500.000
G1 X96.057 Y166.410 E6.95691 F600.000
G1 X91.543 Y166.410 E7.07854
G1 X89.285 Y162.500 E7.20017
G1 X91.543 Y158.590 E7.32180
G1 X96.057 Y158.590 E7.44343
G1 X98.285 Y162.448 E7.56344
G1 F2400.000 E2.56344
G92 E0
G1 X89.638 Y162.500 F10500.000
G1 E5.00000 F2400.000
G1 X91.719 Y158.896 E5.11212 F300.000
G1 X95.881 Y158.896 E5.22424
G1 X97.962 Y162.500 E5.33636
G1 X95.881 Y166.104 E5.44847
G1 X91.719 Y166.104 E5.56059
G1 X89.668 Y162.552 E5.67110
G1 X89.332 Y162.243 F10500.000
G1 X90.899 Y158.054 F10500.000
G1 X88.557 Y162.110 E5.79726 F600.000
G1 X84.043 Y162.110 E5.91889
G1 X81.701 Y158.054 E6.04506
G1 X90.839 Y158.054 E6.29123
G1 X90.369 Y158.360 F10500.000
G1 X88.381 Y161.804 E6.39838 F300.000
G1 X84.219 Y161.804 E6.51049
G1 X82.231 Y158.360 E6.61764
G1 X90.309 Y158.360 E6.83528
G1 X90.745 Y158.497 F10500.000
G1 F2400.000 E1.83528
G92 E0
G1 X83.415 Y162.500 F10500.000
G1 E5.00000 F2400.000
G1 X81.157 Y166.410 E5.12163 F600.000
G1 X76.643 Y166.410 E5.24326
G1 X74.385 Y162.500 E5.36489
G1 X76.643 Y158.590 E5.48652
G1 X81.157 Y158.590 E5.60815
G1 X83.385 Y162.448 E5.72816
G1 F2400.000 E0.72816
G92 E0
G1 X74.738 Y162.500 F10500.000
G1 E5.00000 F2400.000
G1 X76.819 Y158.896 E5.11212 F300.000
G1 X80.981 Y158.896 E5.22424
G1 X83.062 Y162.500 E5.33636
G1 X80.981 Y166.104 E5.44847
G1 X76.819 Y166.104 E5.56059
G1 X74.768 Y162.552 E5.67110
G1 X74.432 Y162.243 F10500.000
G1 X75.999 Y158.054 F10500.000
G1 X73.657 Y162.110 E5.79726 F600.000
G1 X69.143 Y162.110 E5.91889
G1 X66.801 Y158.054 E6.04506
G1 X75.939 Y158.054 E6.29123
G1 X75.469 Y158.360 F10500.000
G1 X73.481 Y161.804 E6.39838 F300.000
G1 X69.319 Y161.804 E6.51049
G1 X67.331 Y158.360 E6.61764
G1 X75.409 Y158.360 E6.83528
G1 X75.845 Y158.497 F10500.000
G1 F2400.000 E1.83528
G92 E0
G1 X68.515 Y162.500 F10500.000
G1 E5.00000 F2400.000
G1 X66.257 Y166.410 E5.12163 F600.000
G1 X64.554 Y166.410 E5.16751
G1 X64.554 Y158.590 E5.37818
G1 X66.257 Y158.590 E5.42407
G1 X68.485 Y162.448 E5.54408
G1 F2400.000 E0.54408
G92 E0
G1 X64.860 Y158.896 F10500.000
G1 E5.00000 F2400.000
G1 X66.081 Y158.896 E5.03289 F300.000
G1 X68.162 Y162.500 E5.14501
G1 X66.081 Y166.104 E5.25713
G1 X64.860 Y166.104 E5.29002
G1 X64.860 Y158.956 E5.48260
G1 X64.860 Y158.496 F10500.000
G1 F2400.000 E0.48260
G92 E0
G1 X66.484 Y167.284 F10500.000
G1 E5.00000 F2400.000
G1 X68.966 Y162.984 E5.13377 F600.000
G1 X73.834 Y162.984 E5.26491
G1 X76.391 Y167.414 E5.40271
G1 X76.466 Y167.284 E5.40674
G1 X81.384 Y167.284 E5.53922
G1 X83.866 Y162.984 E5.67298
G1 X88.734 Y162.984 E5.80413
G1 X91.291 Y167.414 E5.94193
G1 X91.366 Y167.284 E5.94596
G1 X96.284 Y167.284 E6.07844
G1 X98.766 Y162.984 E6.21220
G1 X103.634 Y162.984 E6.34334
G1 X106.191 Y167.414 E6.48114
G1 X106.266 Y167.284 E6.48517
G1 X111.184 Y167.284 E6.61765
G1 X113.666 Y162.984 E6.75142
G1 X118.534 Y162.984 E6.88256
G1 X121.091 Y167.414 E7.02036
G1 X121.166 Y167.284 E7.02439
G1 X126.084 Y167.284 E7.15687
G1 X128.566 Y162.984 E7.29064
G1 X133.434 Y162.984 E7.42178
G1 X135.991 Y167.414 E7.55958
G1 X136.066 Y167.284 E7.56361
G1 X140.984 Y167.284 E7.69609
G1 X143.466 Y162.984 E7.82986
G1 X148.334 Y162.984 E7.96100
G1 X150.891 Y167.414 E8.09880
G1 X150.966 Y167.284 E8.10283
G1 X155.752 Y167.284 E8.23175
G1 X155.752 Y175.716 E8.45889
G1 X150.966 Y175.716 E8.58782
G1 X148.409 Y171.286 E8.72561
G1 X148.334 Y171.416 E8.72965
G1 X143.416 Y171.416 E8.86212
G1 X140.934 Y175.716 E8.99589
G1 X136.066 Y175.716 E9.12703
G1 X133.509 Y171.286 E9.26483
G1 X133.434 Y171.416 E9.26886
G1 X128.516 Y171.416 E9.40134
G1 X126.034 Y175.716 E9.53511
G1 X121.166 Y175.716 E9.66625
G1 X118.609 Y171.286 E9.80405
G1 X118.534 Y171.416 E9.80808
G1 X113.616 Y171.416 E9.94056
G1 X111.134 Y175.716 E10.07433
G1 X106.266 Y175.716 E10.20547
G1 X103.709 Y171.286 E10.34327
G1 X103.634 Y171.416 E10.34730
G1 X98.716 Y171.416 E10.47978
G1 X96.234 Y175.716 E10.61354
G1 X91.366 Y175.716 E10.74469
G1 X88.809 Y171.286 E10.88248
G1 X88.734 Y171.416 E10.88652
G1 X83.816 Y171.416 E11.01899
G1 X81.334 Y175.716 E11.15276
G1 X76.466 Y175.716 E11.28390
G1 X73.909 Y171.286 E11.42170
G1 X73.834 Y171.416 E11.42573
G1 X68.916 Y171.416 E11.55821
G1 X66.434 Y175.716 E11.69198
G1 X64.248 Y175.716 E11.75086
G1 X64.248 Y167.284 E11.97800
G1 X66.424 Y167.284 E12.03660
G1 F2400.000 E7.03660
G92 E0
G1 X148.885 Y171.500 F10500.000
G1 E5.00000 F2400.000
G1 X151.143 Y167.590 E5.12163 F600.000
G1 X155.446 Y167.590 E5.23756
G1 X155.446 Y175.410 E5.44823
G1 X151.143 Y175.410 E5.56416
G1 X148.915 Y171.552 E5.68417
G1 X149.238 Y171.500 F10500.000
G1 X151.319 Y167.896 E5.79629 F300.000
G1 X155.140 Y167.896 E5.89923
G1 X155.140 Y175.104 E6.09342
G1 X151.319 Y175.104 E6.19636
